!!!COM: Beethoven, Ludwig van
!!!CDT: 1770///-1827///
!!!ODT: 1809///
!!!OTL: String Quartet No. 10 in E-flat Major, Op. 74
!!!OPS: Op. 74
!!!OMV: Mvmt. 3
!!!OMD: Presto
!!!PDT: 1810///
!!!PPP: Leipzig and London
!!!ODE: Prince Lobkowitz
**kern	**dynam	**kern	**dynam	**kern	**dynam	**kern	**dynam
*staff4	*staff4	*staff3	*staff3	*staff2	*staff2	*staff1	*staff1
*Icello	*Icello	*Iviola	*Iviola	*Ivioln	*Ivioln	*Ivioln	*Ivioln
*>[A,A,B,B1,B,C,D,D,E]	*>[A,A,B,B1,B,C,D,D,E]	*>[A,A,B,B1,B,C,D,D,E]	*>[A,A,B,B1,B,C,D,D,E]	*>[A,A,B,B1,B,C,D,D,E]	*>[A,A,B,B1,B,C,D,D,E]	*>[A,A,B,B1,B,C,D,D,E]	*>[A,A,B,B1,B,C,D,D,E]
*>norep[A,B,C,D,E]	*>norep[A,B,C,D,E]	*>norep[A,B,C,D,E]	*>norep[A,B,C,D,E]	*>norep[A,B,C,D,E]	*>norep[A,B,C,D,E]	*>norep[A,B,C,D,E]	*>norep[A,B,C,D,E]
*clefF4	*clefF4	*clefC3	*clefC3	*clefG2	*clefG2	*clefG2	*clefG2
*k[b-e-a-]	*k[b-e-a-]	*k[b-e-a-]	*k[b-e-a-]	*k[b-e-a-]	*k[b-e-a-]	*k[b-e-a-]	*k[b-e-a-]
*c:	*c:	*c:	*c:	*c:	*c:	*c:	*c:
*M3/4	*M3/4	*M3/4	*M3/4	*M3/4	*M3/4	*M3/4	*M3/4
*MM240	*MM240	*MM240	*MM240	*MM240	*MM240	*MM240	*MM240
*>A	*>A	*>A	*>A	*>A	*>A	*>A	*>A
4r	.	4r	.	4r	.	8cc\L	f
.	.	.	.	.	.	8cc\	.
8r	.	8r	.	8r	.	8cc\J	.
=1	=1	=1	=1	=1	=1	=1	=1
4CC/ 4C/	f	8c\L	f	8e-/L	f	4.c/	.
.	.	8d\	.	8f/	.	.	.
4r	.	8e-\	.	8g/	.	.	.
.	.	8f\	.	8a-/	.	8ee-\L	.
4r	.	8e-\	.	8g/	.	8ee-\	.
.	.	8d\J	.	8f/J	.	8ee-\J	.
=2	=2	=2	=2	=2	=2	=2	=2
4CC/ 4C/	.	8c\L	.	8e-/L	.	4.e-/	.
.	.	8d\	.	8f/	.	.	.
4r	.	8e-\	.	8g/	.	.	.
.	.	8f\	.	8a-/	.	8gg\L	.
4r	.	8e-\	.	8g/	.	8gg\	.
.	.	8d\J	.	8f/J	.	8gg\J	.
=3	=3	=3	=3	=3	=3	=3	=3
4CC/ 4C/	.	8c\L	.	8e-/L	.	4cc'\	.
.	.	8d\	.	8f/	.	.	.
4CC/ 4C/	.	8e-\	.	8g/	.	4eee-'\	.
.	.	8f\	.	8a-/	.	.	.
4CC/ 4C/	.	8f#\	.	8an/	.	4cc'\	.
.	.	8f#\J	.	8a/J	.	.	.
=4	=4	=4	=4	=4	=4	=4	=4
4GG/	.	8g\L	.	8bn\L	.	4bn\	.
.	.	8an\	.	8cc\	.	.	.
4r	.	8bn\	.	8dd\	.	8r	.
.	.	8b\	p	8dd\	p	8gg\L	p
4r	.	8b\	.	8dd\	.	8gg\	.
.	.	8b\J	.	8dd\J	.	8gg\J	.
=5	=5	=5	=5	=5	=5	=5	=5
2.r	.	8cc\L	.	8ee-\L	.	8aa-\L	.
.	.	8b-\	.	8dd\	.	8gg\	.
.	.	8an\	.	8cc\	.	8ff#\	.
.	.	8bn\	.	8dd\	.	8gg\	.
.	.	8g\	.	8bn\	.	8dd\	.
.	.	8g\J	.	8b\J	.	8dd\J	.
=6	=6	=6	=6	=6	=6	=6	=6
2.r	.	8g\L	.	8cc/L	.	8ee-\L	.
.	.	8d\	.	8g/	.	8bn\	.
.	.	8e-\	.	8g/	.	8cc\	.
.	.	8Bn\	.	8d/	.	8g\	.
.	.	8c\	.	8e-/	.	8a-\	.
.	.	8c\J	.	8e-/J	.	8a-\J	.
=7	=7	=7	=7	=7	=7	=7	=7
8GG/L	p	4Bn/	.	4d/	.	4g/	.
8AA-/	.	.	.	.	.	.	.
8AA-/	.	4r	.	4r	.	4r	.
8AA-/	.	.	.	.	.	.	.
8AA-/	.	4r	.	4r	.	4r	.
8AA-/J	.	.	.	.	.	.	.
=8	=8	=8	=8	=8	=8	=8	=8
4GG/	.	4r	.	4r	.	4r	.
8r	.	8r	.	8r	.	8r	.
=:|!|:	=:|!|:	=:|!|:	=:|!|:	=:|!|:	=:|!|:	=:|!|:	=:|!|:
*>B	*>B	*>B	*>B	*>B	*>B	*>B	*>B
8AA-/L	f	8A-/L	f	8A-/L	f	8A-/L	f
8AA-/	.	8A-/	.	8A-/	.	8A-/	.
8AA-/J	.	8A-/J	.	8A-/J	.	8A-/J	.
=9	=9	=9	=9	=9	=9	=9	=9
4.GG/	.	4.G/	.	4.G/	.	4.G/	.
8AA-/L	.	8A-/L	.	8A-/L	.	8A-/L	.
8AA-/	.	8A-/	.	8A-/	.	8A-/	.
8AA-/J	.	8A-/J	.	8A-/J	.	8A-/J	.
=10	=10	=10	=10	=10	=10	=10	=10
4.GG/	.	4.G/	.	4.G/	.	4.G/	.
8AA-/L	.	8A-/L	.	8A-/L	.	8A-/L	.
8AA-/	.	8A-/	.	8A-/	.	8A-/	.
8AA-/J	.	8A-/J	.	8A-/J	.	8A-/J	.
=11	=11	=11	=11	=11	=11	=11	=11
4.GG/	.	4.G/	.	4.G/	.	4.G/	.
8AA-/L	.	8A-/L	.	8A-/L	.	8A-/L	.
8AA-/	.	8A-/	.	8A-/	.	8A-/	.
8AA-/J	.	8A-/J	.	8A-/J	.	8A-/J	.
=12	=12	=12	=12	=12	=12	=12	=12
4.GG/	.	4.G/	.	4.G/	.	4.G/	.
8DD-/L	.	8D-/L	.	8d-/L	.	8d-/L	.
8DD-/	.	8D-/	.	8d-/	.	8d-/	.
8DD-/J	.	8D-/J	.	8d-/J	.	8d-/J	.
=13	=13	=13	=13	=13	=13	=13	=13
4.CC/	.	4.C/	.	4.c/	.	4.c/	.
8DD-/L	.	8D-/L	.	8d-/L	.	8d-/L	.
8DD-/	.	8D-/	.	8d-/	.	8d-/	.
8DD-/J	.	8D-/J	.	8d-/J	.	8d-/J	.
=14	=14	=14	=14	=14	=14	=14	=14
4.CC/	.	4.C/	.	4.c/	.	4.c/	.
8DD-/L	.	8D-/L	.	8d-/L	.	8d-/L	.
8DD-/	.	8D-/	.	8d-/	.	8d-/	.
8DD-/J	.	8D-/J	.	8d-/J	.	8d-/J	.
=15	=15	=15	=15	=15	=15	=15	=15
4.CC/	.	4.C/	.	4.c/	.	4.c/	.
8DD-/L	.	8D-/L	.	8d-/L	.	8d-/L	.
8DD-/	.	8D-/	.	8d-/	.	8d-/	.
8DD-/J	.	8D-/J	.	8d-/J	.	8d-/J	.
=16	=16	=16	=16	=16	=16	=16	=16
4.CC/	.	4.C/	.	4.c/	.	4.c/	.
8C/L	.	8E-/L	.	8A-/L	.	8a-/L	.
8C/	.	8E-/	.	8A-/	.	8a-/	.
8C/J	.	8E-/J	.	8A-/J	.	8a-/J	.
=17	=17	=17	=17	=17	=17	=17	=17
4D-/	.	8F/ 8A-/L	.	4A-/ 4f/	.	8f/L	.
.	.	8F/ 8A-/	.	.	.	8d-/	.
4r	.	8F/ 8A-/	.	4r	.	8f/	.
.	.	8F/ 8A-/	.	.	.	8a-/	.
4r	.	8F/ 8A-/	.	4r	.	8dd-/	.
.	.	8F/ 8A-/J	.	.	.	8ff/J	.
=18	=18	=18	=18	=18	=18	=18	=18
4D-/	.	8F/ 8A-/L	.	8f/L	.	4aa-\	.
.	.	8F/ 8A-/	.	8d-/	.	.	.
4r	.	8F/ 8A-/	.	8f/	.	4r	.
.	.	8F/ 8A-/	.	8a-/	.	.	.
4r	.	8F/ 8A-/	.	8dd-/	.	4ff\	.
.	.	8F/ 8A-/J	.	8ff/J	.	.	.
=19	=19	=19	=19	=19	=19	=19	=19
4GG-/	ff	8B-\L	ff	[2.b-\	ff	[2.bb-\	ff
.	.	8G-\	.	.	.	.	.
4r	.	8B-\	.	.	.	.	.
.	.	8e-\	.	.	.	.	.
4r	.	8g-\	.	.	.	.	.
.	.	8b-\J	.	.	.	.	.
=20	=20	=20	=20	=20	=20	=20	=20
8GG-/L	.	4E-/	.	4b-/]	.	(8bb-\L]	.
8EE-/	.	.	.	.	.	8aa-\)	.
8GG-/	.	4r	.	4B-/	.	8gg-'\	.
8BB-/	.	.	.	.	.	8ff'\	.
8E-/	.	8E-/L	.	4g-/	.	8ee-'\	.
8G-/J	.	8E-/J	.	.	.	8dd-'\J	.
=21	=21	=21	=21	=21	=21	=21	=21
4AA-/	.	8E-/L	.	8g/L	.	8cc'/L	.
.	.	8E-/	.	8c/	.	8b-'/	.
4r	.	8E-/	.	8c/	.	8a-'/	.
.	.	8E-/	.	8c/	.	8g-'/	.
4r	.	8E-/	.	8c/	.	8f'/	.
.	.	8E-/J	.	8c/J	.	8e-'/J	.
=22	=22	=22	=22	=22	=22	=22	=22
4AA-/	.	8G-/L	.	8e-/L	.	8d-/L	.
.	.	8G-/	.	8e-/	.	8c/	.
4r	.	8G-/	.	8e-/	.	8e-/	.
.	.	8G-/	.	8e-/	.	8c/	.
4r	.	8G-/	.	8e-/	.	8A-/	.
.	.	8G-/J	.	8e-/J	.	8c/J	.
=23	=23	=23	=23	=23	=23	=23	=23
4.D-\	.	4.A-/	.	4.f/	.	4d-/	.
.	.	.	.	.	.	4r	.
8d-\L	f	8f\L	f	8a-/L	f	.	.
8d-\	.	8f\	.	8a-/	.	4r	.
8d-\J	.	8f\J	.	8a-/J	.	.	.
=24	=24	=24	=24	=24	=24	=24	=24
4.d-\	.	4.f\	.	4.a-/	.	4r	.
.	.	.	.	.	.	8r	.
8D-\L	.	8F/L	.	8A-/L	.	8a-/L	f
8D-\	.	8F/	.	8A-/	.	8a-/	.
8D-\J	.	8F/J	.	8A-/J	.	8a-/J	.
=25	=25	=25	=25	=25	=25	=25	=25
4D-\	.	8F/L	.	4A-/	.	8f/L	.
.	.	8F/ 8A-/	.	.	.	8d-/	.
4r	.	8F/ 8A-/	.	4r	.	8f/	.
.	.	8F/ 8A-/	.	.	.	8a-/	.
4r	.	8F/ 8A-/	.	4r	.	8dd-/	.
.	.	8F/ 8A-/J	.	.	.	8ff/J	.
=26	=26	=26	=26	=26	=26	=26	=26
4D-\	.	8F/ 8A-/L	.	8f/L	.	4aa-\	.
.	.	8F/ 8A-/	.	8d-/	.	.	.
4r	.	8F/ 8A-/	.	8f/	.	4r	.
.	.	8F/ 8A-/	.	8a-/	.	.	.
4r	.	8F/ 8A-/	.	8dd-/	.	4ff\	.
.	.	8F/ 8A-/J	.	8ff/J	.	.	.
=27	=27	=27	=27	=27	=27	=27	=27
4BB-/	ff	8F\ 8Gn\L	.	[2.dd-\	ff	[2.ddd-\	ff
.	.	8G\	.	.	.	.	.
4r	.	8B-\	.	.	.	.	.
.	.	8d-\	.	.	.	.	.
4r	.	8g\	.	.	.	.	.
.	.	8b-\J	.	.	.	.	.
=28	=28	=28	=28	=28	=28	=28	=28
8BB-/L	.	4B-/	.	4dd-\]	.	(8ddd-\L]	.
8GGn/	.	.	.	.	.	8ccc\)	.
8BB-/	.	4r	.	4d-/	.	8bb-'\	.
8D-/	.	.	.	.	.	8aa-'\	.
8Gn/	.	8G/L	.	[4b-/	.	8ggn'\	.
8B-/J	.	8G/J	.	.	.	8ff'\J	.
=29	=29	=29	=29	=29	=29	=29	=29
4C/	.	8G/L	.	8b-/L]	.	8een'\L	.
.	.	8G/	.	8B-/	.	8dd-'\	.
4r	.	8G/	.	8B-/	.	8cc'\	.
.	.	8G/	.	8B-/	.	8b-'\	.
4r	.	8G/	.	8B-/	.	8a-'\	.
.	.	8G/J	.	8B-/J	.	8gn'\J	.
=30	=30	=30	=30	=30	=30	=30	=30
4C/	.	8G/L	.	8B-/L	.	8f/L	.
.	.	8G/	.	8B-/	.	8en/	.
4r	.	8G/	.	8B-/	.	8g/	.
.	.	8G/	.	8B-/	.	8e/	.
4r	.	8G/	.	8B-/	.	8c/	.
.	.	8G/J	.	8B-/J	.	8e/J	.
=31	=31	=31	=31	=31	=31	=31	=31
4FF/	.	8F/L	.	8A-/L	.	4.f/	.
.	.	8G/	.	8B-/	.	.	.
4r	.	8A-/	.	8c/	.	.	.
.	.	8B-/	.	8d-/	.	8ff\L	.
4r	.	8A-/	.	8c/	.	8ff\	.
.	.	8G/J	.	8B-/J	.	8ff\J	.
=32	=32	=32	=32	=32	=32	=32	=32
4FF/	.	8F/L	.	8A-/L	.	4.f/	.
.	.	8G/	.	8B-/	.	.	.
4r	.	8A-/	.	8c/	.	.	.
.	.	8B-/	.	8d-/	.	8aa-\L	.
4r	.	8A-/	.	8c/	.	8aa-\	.
.	.	8G/J	.	8B-/J	.	8aa-\J	.
=33	=33	=33	=33	=33	=33	=33	=33
4FF/	.	8F/L	.	8A-/L	.	4ff\	.
.	.	8G/	.	8B-/	.	.	.
4FF/	.	8F/	.	8A-/	.	4fff\	.
.	.	8G/	.	8B-/	.	.	.
4FF/	.	8A-/	.	8c/	.	4ff\	.
.	.	8F/J	.	8A-/J	.	.	.
=34	=34	=34	=34	=34	=34	=34	=34
2.r	.	4r	.	4ddn\	p	4r	.
.	.	4r	.	4dn/	.	4fff\	p
.	.	4bn\	p	4r	.	4ff\	.
=35	=35	=35	=35	=35	=35	=35	=35
4r	.	4Bn/	.	2.r	.	4r	.
4dn\	p	4r	.	.	.	4fff\	.
4Dn\	.	4r	.	.	.	4ff\	.
=36	=36	=36	=36	=36	=36	=36	=36
4Bn\	.	4r	.	4r	.	4r	.
4GG/	.	4G/	.	4f/	.	4ddd\	.
8AAn/L	.	4G/	.	4f/	.	4dd\	.
8BBn/J	.	.	.	.	.	.	.
=37	=37	=37	=37	=37	=37	=37	=37
4CC/ 4C/	f	8C/L	f	8e-/L	f	4.c/	f
.	.	8D/	.	8f/	.	.	.
4r	.	8E-/	.	8g/	.	.	.
.	.	8F/	.	8a-/	.	8ee-\L	.
4r	.	8E-/	.	8g/	.	8ee-\	.
.	.	8D/J	.	8f/J	.	8ee-\J	.
=38	=38	=38	=38	=38	=38	=38	=38
4CC/ 4C/	.	8C/L	.	8e-/L	.	4.c/	.
.	.	8D/	.	8f/	.	.	.
4r	.	8E-/	.	8g/	.	.	.
.	.	8F/	.	8a-/	.	8gg\L	.
4r	.	8E-/	.	8g/	.	8gg\	.
.	.	8D/J	.	8f/J	.	8gg\J	.
=39	=39	=39	=39	=39	=39	=39	=39
4CC/ 4C/	.	8C/L	.	8e-/L	.	4cc\	.
.	.	8D/	.	8f/	.	.	.
4CC/ 4C/	.	8C/	.	8e-/	.	4eee-\	.
.	.	8D/	.	8f/	.	.	.
4CC/ 4C/	.	8E-/	.	8g/	.	4cc\	.
.	.	8C/J	.	8e-/J	.	.	.
=40	=40	=40	=40	=40	=40	=40	=40
2.r	.	4r	.	4an/	p	4r	.
.	.	4r	.	4An/	.	4ccc\	p
.	.	4f#\	p	4r	.	4cc\	.
=41	=41	=41	=41	=41	=41	=41	=41
4r	.	4F#/	.	2.r	.	4r	.
4An\	p	4r	.	.	.	4ccc\	.
4AAn/	.	4r	.	.	.	4cc\	.
=42	=42	=42	=42	=42	=42	=42	=42
4F#\	.	4r	.	4r	.	4r	.
4DD/	.	4d\	.	4c/	.	4aan\	.
8EEn/L	.	4d\	.	4c/	.	4an/	.
8FF#/J	.	.	.	.	.	.	.
=43	=43	=43	=43	=43	=43	=43	=43
4GG'/	.	4d\	.	4B-/ 4g/	.	[2.gg\	.
4B-'\	.	4r	.	8r	.	.	.
.	.	.	.	8g/L	.	.	.
4GG'/	.	4r	.	8g/	.	.	.
.	.	.	.	8g/J	.	.	.
=44	=44	=44	=44	=44	=44	=44	=44
4GG/	.	2.r	.	4g/	.	2gg\]	.
4Bn\	.	.	.	8r	.	.	.
.	.	.	.	8g/L	.	.	.
4GG/	.	.	.	8g/	.	4ff\	.
.	.	.	.	8g/J	.	.	.
=45	=45	=45	=45	=45	=45	=45	=45
4GG/	.	2.r	.	4g/	.	(8ff\L	.
.	.	.	.	.	.	8ee-\J)	.
4c\	.	.	.	8r	.	4r	.
.	.	.	.	8g/L	.	.	.
4GG/	.	.	.	8g/	.	4dd\	.
.	.	.	.	8g/J	.	.	.
=46	=46	=46	=46	=46	=46	=46	=46
4GG/	.	2.r	.	4g/	.	(8ff\L	.
.	.	.	.	.	.	8ee-\J)	.
4Bn\	.	.	.	8r	.	4r	.
.	.	.	.	8g/L	.	.	.
4GG/	.	.	.	8g/	.	4dd\	.
.	.	.	.	8g/J	.	.	.
=47	=47	=47	=47	=47	=47	=47	=47
4GG/	.	2.r	.	4g/	.	(8ff\L	.
.	.	.	.	.	.	8ee-\J)	.
4c\	.	.	.	8r	.	4r	.
.	.	.	.	8g/L	.	.	.
4GG/	.	.	.	8g/	.	4dd\	.
.	.	.	.	8g/J	.	.	.
=48	=48	=48	=48	=48	=48	=48	=48
4GG/	.	2.r	.	4g/	.	4ee-\	.
4An\	.	.	.	8r	.	4r	.
.	.	.	.	8g/L	.	.	.
4GG/	.	.	.	8g/	.	4ff#\	.
.	.	.	.	8g/J	.	.	.
=49	=49	=49	=49	=49	=49	=49	=49
4GG/	.	2.r	.	[2.g/	.	[2.gg\	.
4G\	.	.	.	.	.	.	.
4GG/	.	.	.	.	.	.	.
=50	=50	=50	=50	=50	=50	=50	=50
4GG/	.	4r	.	2g/]	.	2gg\]	.
(8GG/L	.	(4Bn/	.	.	.	.	.
8FF/	.	.	.	.	.	.	.
8EE-/	.	8c\L	.	(8an/L	.	(8aan\L	.
8DD/J)	.	8d\J)	.	8bn/J)	.	8bbn\J)	.
=51	=51	=51	=51	=51	=51	=51	=51
4CC/	.	4C/	.	[2.cc\	.	[2.ccc\	.
8r	.	4e-\	.	.	.	.	.
8c\L	.	.	.	.	.	.	.
8c\	.	4C/	.	.	.	.	.
8c\J	.	.	.	.	.	.	.
=52	=52	=52	=52	=52	=52	=52	=52
4c\	.	4C/	.	(2cc\]	.	(2ccc\]	.
8r	.	4en\	.	.	.	.	.
8c\L	.	.	.	.	.	.	.
8c\	.	4C/	.	4b-\)	.	4bb-\)	.
8c\J	.	.	.	.	.	.	.
=53	=53	=53	=53	=53	=53	=53	=53
4c\	.	4C/	.	(8b-/L	.	(8bb-\L	.
.	.	.	.	8a-/J)	.	8aa-\J)	.
8r	.	4f\	.	4r	.	4r	.
8c\L	.	.	.	.	.	.	.
8c\	.	4C/	.	4g/	.	4gg\	.
8c\J	.	.	.	.	.	.	.
=54	=54	=54	=54	=54	=54	=54	=54
4c\	.	4C/	.	(8b-/L	.	(8bb-\L	.
.	.	.	.	8a-/J)	.	8aa-\J)	.
8r	.	4en\	.	4r	.	4r	.
8c\L	.	.	.	.	.	.	.
8c\	.	4C/	.	4g/	.	4gg\	.
8c\J	.	.	.	.	.	.	.
=55	=55	=55	=55	=55	=55	=55	=55
4c\	.	4C/	.	(8b-/L	.	(8bb-\L	.
.	.	.	.	8a-/J)	.	8aa-\J)	.
8r	.	4f\	.	4r	.	4r	.
8c\L	.	.	.	.	.	.	.
8c\	.	4C/	.	4g/	.	4gg\	.
8c\J	.	.	.	.	.	.	.
=56	=56	=56	=56	=56	=56	=56	=56
4c\	.	4C/	.	4a-/	.	4aa-\	.
8r	.	4d\	.	4r	.	4r	.
8c\L	.	.	.	.	.	.	.
8c\	.	4C/	.	4bn\	.	4bbn\	.
8c\J	.	.	.	.	.	.	.
=57	=57	=57	=57	=57	=57	=57	=57
8c\L	.	8e-\L	.	4.cc\	.	4.ccc\	.
8c\J	.	8e-\J	.	.	.	.	.
2e-\	.	2g\	.	.	.	.	.
.	.	.	.	8cc\L	.	8ccc\L	.
.	.	.	.	8cc\	.	8ccc\	.
.	.	.	.	8cc\J	.	8bb-\J	.
=58	=58	=58	=58	=58	=58	=58	=58
8f\L	.	8a-\L	.	4cc\	.	4.aa-\	.
8f\J	.	8a-\J	.	.	.	.	.
2d\	.	2f\	.	8b-\L	.	.	.
.	.	.	.	8b-\	.	8bb-\L	.
.	.	.	.	8b-\	.	8bb-\	.
.	.	.	.	8b-\J	.	8aa-\J	.
=59	=59	=59	=59	=59	=59	=59	=59
8e-\L	.	8g\L	.	4b-/	.	4.gg\	.
8e-\J	.	8g\J	.	.	.	.	.
2c\	.	2e-\	.	8a-/L	.	.	.
.	.	.	.	8a-/	.	8aa-\L	.
.	.	.	.	8a-/	.	8aa-\	.
.	.	.	.	8a-/J	.	8gg\J	.
=60	=60	=60	=60	=60	=60	=60	=60
8d\L	.	8f\L	.	4a-/	.	4.ff\	.
8d\J	.	8f\J	.	.	.	.	.
2Bn\	.	2d\	.	8g/L	.	.	.
.	.	.	.	8g/	.	8gg\L	.
.	.	.	.	8g/	.	8gg\	.
.	.	.	.	8g/J	.	8ff\J	.
=61	=61	=61	=61	=61	=61	=61	=61
8c\L	p	8e-/L	p	4g/	p	4.ee-\	p
8C\J	.	8E-/J	.	.	.	.	.
2E-\	.	2G/	.	8c/L	.	.	.
.	.	.	.	8c/	.	8cc\L	.
.	.	.	.	8c/	.	8cc\	.
.	.	.	.	8c/J	.	8b-\J	.
=62	=62	=62	=62	=62	=62	=62	=62
8F\L	.	8A-/L	.	4c/	.	4.a-/	p
8F\J	p	8A-/J	p	.	.	.	.
2D\	.	2F/	.	8B-/L	p	.	.
.	.	.	.	8B-/	.	8b-/L	.
.	.	.	.	8B-/	.	8b-/	.
.	.	.	.	8B-/J	.	8a-/J	.
=63	=63	=63	=63	=63	=63	=63	=63
8E-\L	.	8G/L	.	4B-/	.	4.g/	.
8E-\J	.	8G/J	.	.	.	.	.
2C/	.	2E-/	.	8A-/L	.	.	.
.	.	.	.	8A-/	.	8a-/L	.
.	.	.	.	8A-/	.	8a-/	.
.	.	.	.	8A-/J	.	8g/J	.
=64	=64	=64	=64	=64	=64	=64	=64
8D/L	.	8F/L	.	4A-/	.	4.f/	.
8D/J	.	8F/J	.	.	.	.	.
2BBn/	.	2D/	.	8G/L	.	.	.
.	.	.	.	8G/	.	8g/L	.
.	.	.	.	8G/	.	8g/	.
.	.	.	.	8G/J	.	8f/J	.
=65	=65	=65	=65	=65	=65	=65	=65
8C/L	.	8E-/L	.	4G/	.	4.e-/	.
8C/J	.	8E-/J	.	.	.	.	.
2AA-/	.	2C/	.	8c/L	.	.	.
.	.	.	.	8c/	.	8f/L	.
.	.	.	.	8c/	.	8e-/	.
.	.	.	.	8c/J	.	8f/J	.
=66	=66	=66	=66	=66	=66	=66	=66
8GG/L	.	8D/L	.	4c/	.	4.g/	.
8GG/J	.	8D/J	.	.	.	.	.
2GG/	.	2D/	.	8Bn/L	.	.	.
.	.	.	.	8B/	.	8g/L	.
.	.	.	.	8B/	.	8g/	.
.	.	.	.	8B/J	.	8f/J	.
=67	=67	=67	=67	=67	=67	=67	=67
8C/L	.	8E-/L	.	4G/	.	4.e-/	.
8C/J	.	8E-/J	.	.	.	.	.
2AA-/	.	2C/	.	8c/L	.	.	.
.	.	.	.	8c/	.	8f/L	.
.	.	.	.	8c/	.	8e-/	.
.	.	.	.	8c/J	.	8f/J	.
=68	=68	=68	=68	=68	=68	=68	=68
8GG/L	.	8D/L	.	4c/	.	4.g/	.
8GG/J	.	8D/J	.	.	.	.	.
2GG/	.	2D/	.	8Bn/L	.	.	.
.	.	.	.	8B/	.	8g/L	.
.	.	.	.	8B/	.	8g/	.
.	.	.	.	8B/J	.	8g/J	.
=69	=69	=69	=69	=69	=69	=69	=69
8GG/L	pp	4D/	pp	4Bn/	.	4g/	pp
8GG/	.	.	.	.	.	.	.
8AA-/	.	4r	.	4r	.	4r	.
8AA-/	.	.	.	.	.	.	.
8GG/	.	4r	.	4r	.	4r	.
8GG/J	.	.	.	.	.	.	.
=70	=70	=70	=70	=70	=70	=70	=70
8FF/L	.	2.r	.	4c/	.	4a-/	.
8FF/	.	.	.	.	.	.	.
8GG/	.	.	.	4r	.	4r	.
8GG/	.	.	.	.	.	.	.
8FF/	.	.	.	4r	.	4r	.
8FF/J	.	.	.	.	.	.	.
=71	=71	=71	=71	=71	=71	=71	=71
8EE-/L	.	4G/	.	4c/	.	4an/	.
8EE-/	.	.	.	.	.	.	.
8FF/	.	4r	.	4r	.	4r	.
8FF/	.	.	.	.	.	.	.
8EE-/	.	4r	.	4r	.	4r	.
8EE-/J	.	.	.	.	.	.	.
=72	=72	=72	=72	=72	=72	=72	=72
8DD/L	.	4G/	.	4d/	.	4bn\	.
8DD/	.	.	.	.	.	.	.
8EE-/	.	4r	.	4r	.	4r	.
8EE-/	.	.	.	.	.	.	.
8DD/	.	4r	.	4r	.	4r	.
8DD/J	.	.	.	.	.	.	.
=73	=73	=73	=73	=73	=73	=73	=73
8CC/L	.	4G/	.	4e-/	.	4cc\	.
8GG/	.	.	.	.	.	.	.
8GG/	.	4r	.	4r	.	4r	.
8GG/	.	.	.	.	.	.	.
8GG/	.	8G/L	.	8d/L	.	8bn\L	.
8GG/J	pp	8G/J	pp	8d/J	pp	8b\J	pp
=74	=74	=74	=74	=74	=74	=74	=74
8CC/L	.	4G/	.	4e-/	.	4cc\	.
8GG/	.	.	.	.	.	.	.
8GG/	.	4r	.	4r	.	4r	.
8GG/	.	.	.	.	.	.	.
8GG/	.	8G/L	.	8d/L	.	8bn\L	.
8GG/J	.	8G/J	.	8d/J	.	8b\J	.
=75	=75	=75	=75	=75	=75	=75	=75
8CC/L	.	4G/	.	4e-/	.	4cc\	.
8GG/	.	.	.	.	.	.	.
8GG/	.	4r	.	4r	.	4r	.
8GG/	.	.	.	.	.	.	.
8GG/	.	8G/L	.	8d/L	.	8bn\L	.
8GG/J	.	8G/J	.	8d/J	.	8b\J	.
=76	=76	=76	=76	=76	=76	=76	=76
8CC/L	.	4G/	.	4e-/	.	4cc\	.
8GG/	.	.	.	.	.	.	.
8GG/	.	4r	.	4r	.	4r	.
8GG/	.	.	.	.	.	.	.
8GG/	.	8G/L	.	8d/L	.	8bn\L	.
8GG/J	.	8G/J	.	8d/J	.	8b\J	.
=77	=77	=77	=77	=77	=77	=77	=77
*>B1	*>B1	*>B1	*>B1	*>B1	*>B1	*>B1	*>B1
4GG/	f	4G/	f	4d/	f	4bn\	f
8r	.	8r	.	8r	.	8r	.
=78:|!	=78:|!	=78:|!	=78:|!	=78:|!	=78:|!	=78:|!	=78:|!
*>C	*>C	*>C	*>C	*>C	*>C	*>C	*>C
*MM480	*MM480	*MM480	*MM480	*MM480	*MM480	*MM480	*MM480
*k[]	*k[]	*k[]	*k[]	*k[]	*k[]	*k[]	*k[]
4CC/	f	4C/ 4G/	f	4c/ 4en/	f	4G/ 4en/ 4cc/	.
4r	.	4r	.	4r	.	4r	.
4r	.	4r	.	4r	.	4r	.
=79	=79	=79	=79	=79	=79	=79	=79
4c\	ff	2.r	.	2.r	.	2.r	.
4d\	.	.	.	.	.	.	.
4e\	.	.	.	.	.	.	.
=80	=80	=80	=80	=80	=80	=80	=80
4d\	.	2.r	.	2.r	.	2.r	.
4c\	.	.	.	.	.	.	.
4B\	.	.	.	.	.	.	.
=81	=81	=81	=81	=81	=81	=81	=81
4A\	.	2.r	.	2.r	.	2.r	.
4G\	.	.	.	.	.	.	.
4F\	.	.	.	.	.	.	.
=82	=82	=82	=82	=82	=82	=82	=82
4E\	.	2.r	.	2.r	.	2.r	.
4F\	.	.	.	.	.	.	.
4G\	.	.	.	.	.	.	.
=83	=83	=83	=83	=83	=83	=83	=83
4A\	.	2.r	.	2.r	.	2.r	.
4B\	.	.	.	.	.	.	.
4c\	.	.	.	.	.	.	.
=84	=84	=84	=84	=84	=84	=84	=84
4B\	.	2.r	.	2.r	.	2.r	.
4A\	.	.	.	.	.	.	.
4G\	.	.	.	.	.	.	.
=85	=85	=85	=85	=85	=85	=85	=85
4F\	.	2.r	.	2.r	.	2.r	.
4E\	.	.	.	.	.	.	.
4D\	.	.	.	.	.	.	.
=86	=86	=86	=86	=86	=86	=86	=86
4C/	.	2.r	.	2.r	.	2.r	.
4D\	.	.	.	.	.	.	.
4E\	.	.	.	.	.	.	.
=87	=87	=87	=87	=87	=87	=87	=87
4F\	.	[2.c\	f	2.r	.	2.r	.
4G\	.	.	.	.	.	.	.
4A\	.	.	.	.	.	.	.
=88	=88	=88	=88	=88	=88	=88	=88
4G\	.	2.c\]	.	2.r	.	2.r	.
4F\	.	.	.	.	.	.	.
4E\	.	.	.	.	.	.	.
=89	=89	=89	=89	=89	=89	=89	=89
4D/	.	2.d'\	.	2.r	.	2.r	.
4C/	.	.	.	.	.	.	.
4BB/	.	.	.	.	.	.	.
=90	=90	=90	=90	=90	=90	=90	=90
4AA/	.	2.e'\	.	2.r	.	2.r	.
4BB/	.	.	.	.	.	.	.
4C/	.	.	.	.	.	.	.
=91	=91	=91	=91	=91	=91	=91	=91
4D\	.	2.d'\	.	2.r	.	2.r	.
4E\	.	.	.	.	.	.	.
4F#\	.	.	.	.	.	.	.
=92	=92	=92	=92	=92	=92	=92	=92
4G\	.	2.B'/	.	2.r	.	2.r	.
4F#\	.	.	.	.	.	.	.
4E\	.	.	.	.	.	.	.
=93	=93	=93	=93	=93	=93	=93	=93
4D/	.	2.d'\	.	2.r	.	2.r	.
4C/	.	.	.	.	.	.	.
4BB/	.	.	.	.	.	.	.
=94	=94	=94	=94	=94	=94	=94	=94
4AA/	.	2.e'\	.	2.r	.	2.r	.
4BB/	.	.	.	.	.	.	.
4C/	.	.	.	.	.	.	.
=95	=95	=95	=95	=95	=95	=95	=95
4D\	.	2.d'\	.	2.r	.	2.r	.
4E\	.	.	.	.	.	.	.
4F#\	.	.	.	.	.	.	.
=96	=96	=96	=96	=96	=96	=96	=96
4G\	.	4B/	ff	2.r	.	2.r	.
4r	.	4r	.	.	.	.	.
4r	.	4r	.	.	.	.	.
=97	=97	=97	=97	=97	=97	=97	=97
2.r	.	2.r	.	[2.c/	.	4ccc\	ff
.	.	.	.	.	.	4ddd\	.
.	.	.	.	.	.	4eee\	.
=98	=98	=98	=98	=98	=98	=98	=98
2.r	.	[2.d\	ff	2.c/]	.	4ddd\	.
.	.	.	.	.	.	4ccc\	.
.	.	.	.	.	.	4bb\	.
=99	=99	=99	=99	=99	=99	=99	=99
2.r	.	2.d\_	.	2.B'/	.	4aa\	.
.	.	.	.	.	.	4gg\	.
.	.	.	.	.	.	4ff\	.
=100	=100	=100	=100	=100	=100	=100	=100
2.r	.	2.d\]	.	[2.e/	.	4ee\	.
.	.	.	.	.	.	4ff\	.
.	.	.	.	.	.	4gg\	.
=101	=101	=101	=101	=101	=101	=101	=101
2.r	.	2.c'\	.	2.e/_	.	4aa\	.
.	.	.	.	.	.	4bb\	.
.	.	.	.	.	.	4ccc\	.
=102	=102	=102	=102	=102	=102	=102	=102
2.r	.	[2.f\	.	2.e/]	.	4bb\	.
.	.	.	.	.	.	4aa\	.
.	.	.	.	.	.	4gg\	.
=103	=103	=103	=103	=103	=103	=103	=103
2.r	.	2.f\_	.	2.d'/	.	4ff\	.
.	.	.	.	.	.	4ee\	.
.	.	.	.	.	.	4dd\	.
=104	=104	=104	=104	=104	=104	=104	=104
2.r	.	2f\]	.	2.g'/	.	4cc\	.
.	.	.	.	.	.	4dd\	.
.	.	4e\	.	.	.	4ee\	.
=105	=105	=105	=105	=105	=105	=105	=105
[2.AA/	ff	[2.c\	.	[2.cc\	.	4ff\	.
.	.	.	.	.	.	4gg\	.
.	.	.	.	.	.	4aa\	.
=106	=106	=106	=106	=106	=106	=106	=106
2.AA/]	.	2.c\]	.	2.cc\]	.	4ff#\	.
.	.	.	.	.	.	4gg\	.
.	.	.	.	.	.	4aa\	.
=107	=107	=107	=107	=107	=107	=107	=107
2.GG'/	.	2.B'/	.	2.dd'\	.	4bb\	.
.	.	.	.	.	.	4ccc\	.
.	.	.	.	.	.	4ddd\	.
=108	=108	=108	=108	=108	=108	=108	=108
2.CC'/	.	2.C'/ 2.c'/	.	2.ee'\	.	4aa\	.
.	.	.	.	.	.	4eee\	.
.	.	.	.	.	.	4eee\	.
=109	=109	=109	=109	=109	=109	=109	=109
2.DD'/	.	2.D'/ 2.c'/	.	2.dd'\	.	4ddd\	.
.	.	.	.	.	.	4eee\	.
.	.	.	.	.	.	4fff#\	.
=110	=110	=110	=110	=110	=110	=110	=110
2.GG'/	.	2.D'/ 2.B'/	.	2.b'\	.	4ggg\	.
.	.	.	.	.	.	4fff#\	.
.	.	.	.	.	.	4eee\	.
=111	=111	=111	=111	=111	=111	=111	=111
2.G'\	.	2.D'/ 2.B'/	.	2.dd'\	.	4ddd\	.
.	.	.	.	.	.	4ccc\	.
.	.	.	.	.	.	4bb\	.
=112	=112	=112	=112	=112	=112	=112	=112
2.C'/	.	2.D'/ 2.c'/	.	2.ee'\	.	4aa\	.
.	.	.	.	.	.	4eee\	.
.	.	.	.	.	.	4eee\	.
=113	=113	=113	=113	=113	=113	=113	=113
2.D'/	.	2.D'/ 2.c'/	.	2.d'/ 2.dd'/	.	4ddd\	.
.	.	.	.	.	.	4eee\	.
.	.	.	.	.	.	4fff#\	.
=114	=114	=114	=114	=114	=114	=114	=114
4GG/	.	4D/ 4B/	.	4d/ 4b/	.	4ggg\	.
4r	.	4r	.	4r	.	4r	.
4r	.	4r	.	4r	.	4r	.
=115	=115	=115	=115	=115	=115	=115	=115
[2.GG/	.	[2.G/	.	2.r	.	4gg\	.
.	.	.	.	.	.	4aa\	.
.	.	.	.	.	.	4bb-\	ff
=116	=116	=116	=116	=116	=116	=116	=116
2.GG/]	.	2.G/]	.	2.r	.	4aa\	.
.	.	.	.	.	.	4gg\	.
.	.	.	.	.	.	4ffn\	.
=117	=117	=117	=117	=117	=117	=117	=117
2.AA'/	.	2.A'/	.	2.r	.	4ee\	.
.	.	.	.	.	.	4dd\	.
.	.	.	.	.	.	4cc#\	.
=118	=118	=118	=118	=118	=118	=118	=118
2.BB-'/	.	2.B-'/	.	2.r	.	4b-/	.
.	.	.	.	.	.	4a/	.
.	.	.	.	.	.	4g/	.
=119	=119	=119	=119	=119	=119	=119	=119
2.C#'/	.	2.c#'/	.	2.r	.	4fn/	.
.	.	.	.	.	.	4e/	.
.	.	.	.	.	.	4d/	.
=120	=120	=120	=120	=120	=120	=120	=120
2.E'\	.	2.e'\	.	2.r	.	4c#/	.
.	.	.	.	.	.	4B-/	.
.	.	.	.	.	.	4A/	.
=121	=121	=121	=121	=121	=121	=121	=121
4G\	.	4g\	.	2.G'/	.	2.G'/ 2.g'/	.
4F\	.	4f\	.	.	.	.	.
4E\	.	4e\	.	.	.	.	.
=122	=122	=122	=122	=122	=122	=122	=122
4D/	.	4d\	.	2.c#'/	.	2.cc#'\	.
4C#/	.	4c#\	.	.	.	.	.
4BB-/	.	4B-/	.	.	.	.	.
=123	=123	=123	=123	=123	=123	=123	=123
4AA/	.	4A/	.	2.e'/	.	2.ee'\	.
4GG/	.	4G/	.	.	.	.	.
4FF/	.	4F/	.	.	.	.	.
=124	=124	=124	=124	=124	=124	=124	=124
4EE/	.	4E/	.	2.ee'\ 2.gg'\	.	2.cc#'\ 2.aa'\	.
4DD/	.	4D/	.	.	.	.	.
4CC#/	.	4C#/	.	.	.	.	.
=125	=125	=125	=125	=125	=125	=125	=125
4EE/	.	4E/	.	2.ee'\ 2.gg'\	.	2.cc#'\ 2.aa'\	.
4AA/	.	4A/	.	.	.	.	.
4C#/	.	4c#/	.	.	.	.	.
=126	=126	=126	=126	=126	=126	=126	=126
4E\	.	4e\	.	4g/	.	4cc#\ 4aa\	.
4r	.	4r	.	4r	.	4r	.
4r	.	4r	.	4r	.	4r	.
=127	=127	=127	=127	=127	=127	=127	=127
[2.DD/	.	[2.D/	.	2.r	.	4ff\	.
.	.	.	.	.	.	4gg\	.
.	.	.	.	.	.	4aa\	f
=128	=128	=128	=128	=128	=128	=128	=128
2.DD/]	f	2.D/]	.	2.r	.	4gg\	.
.	.	.	.	.	.	4ff\	.
.	.	.	.	.	.	4ee\	.
=129	=129	=129	=129	=129	=129	=129	=129
2.EE'/	.	2.E'/	.	2.r	.	4dd\	.
.	.	.	.	.	.	4ccn\	.
.	.	.	.	.	.	4b\	.
=130	=130	=130	=130	=130	=130	=130	=130
2.FF'/	.	2.F'/	.	2.r	.	4a/	.
.	.	.	.	.	.	4g/	.
.	.	.	.	.	.	4f/	.
=131	=131	=131	=131	=131	=131	=131	=131
2.BBn'/	.	2.Bn'/	.	2.r	.	4e/	.
.	.	.	.	.	.	4d/	.
.	.	.	.	.	.	4cn/	.
=132	=132	=132	=132	=132	=132	=132	=132
2.D'/	.	2.d'\	.	2.r	.	4Bn/	.
.	.	.	.	.	.	4A/	.
.	.	.	.	.	.	4G/	.
=133	=133	=133	=133	=133	=133	=133	=133
4F\	.	4f\	.	2.f'/	.	2.ff'\	.
4E\	.	4e\	.	.	.	.	.
4D\	.	4d\	.	.	.	.	.
=134	=134	=134	=134	=134	=134	=134	=134
4Cn/	.	4cn/	.	2.b'/	.	2.bb'\	.
4BB/	.	4B/	.	.	.	.	.
4AA/	.	4A/	.	.	.	.	.
=135	=135	=135	=135	=135	=135	=135	=135
4GG/	.	4G/	.	2.dd'\	.	2.ddd'\	.
4FF/	.	4F/	.	.	.	.	.
4EE/	.	4E/	.	.	.	.	.
=136	=136	=136	=136	=136	=136	=136	=136
4DD/	.	4D/	.	2.dd'\ 2.ff'\	.	2.b'\ 2.gg'\	.
4CC/	.	4C/	.	.	.	.	.
4BB/	.	4D/	.	.	.	.	.
=137	=137	=137	=137	=137	=137	=137	=137
4D\	.	4F/	.	2.dd'\ 2.ff'\	.	2.b'\ 2.gg'\	.
4F\	.	4B/	.	.	.	.	.
4B\	.	4d\	.	.	.	.	.
=138	=138	=138	=138	=138	=138	=138	=138
4d\	.	4f\	.	4dd\ 4ff\	.	4b\ 4gg\	.
4r	.	4r	.	4r	.	4r	.
4r	.	4r	.	4r	.	4r	.
=139	=139	=139	=139	=139	=139	=139	=139
4c\	.	4cc\	.	2.r	.	[2.cc\	.
4d\	.	4dd\	.	.	.	.	.
4e\	.	4ee\	.	.	.	.	.
=140	=140	=140	=140	=140	=140	=140	=140
4d\	.	4dd\	.	[2.dd\	.	2.cc\]	.
4c\	.	4cc\	.	.	.	.	.
4B\	.	4b\	.	.	.	.	.
=141	=141	=141	=141	=141	=141	=141	=141
4A\	.	4a\	.	2.dd\_	.	2.b'\	.
4G\	.	4g\	.	.	.	.	.
4F\	.	4f\	.	.	.	.	.
=142	=142	=142	=142	=142	=142	=142	=142
4E\	.	4e\	.	2.dd\]	.	[2.ee\	.
4F\	.	4f\	.	.	.	.	.
4G\	.	4g\	.	.	.	.	.
=143	=143	=143	=143	=143	=143	=143	=143
4A\	.	4a\	.	2.cc\	.	2.ee\_	.
4B\	.	4b\	.	.	.	.	.
4c\	.	4cc\	.	.	.	.	.
=144	=144	=144	=144	=144	=144	=144	=144
4B\	.	4b\	.	[2.ff\	.	2.ee\]	.
4A\	.	4a\	.	.	.	.	.
4G\	.	4g\	.	.	.	.	.
=145	=145	=145	=145	=145	=145	=145	=145
4F\	.	4f\	.	2.ff\_	.	2.dd'\	.
4E\	.	4e\	.	.	.	.	.
4D\	.	4d\	.	.	.	.	.
=146	=146	=146	=146	=146	=146	=146	=146
4C/	.	4c\	.	2.ff\]	.	[2.gg\	.
4D/	.	4d\	.	.	.	.	.
4C/	.	4c\	.	.	.	.	.
=147	=147	=147	=147	=147	=147	=147	=147
4BB-/	.	4B-/	.	2ee\	.	2.gg\]	.
4AA/	.	4A/	.	.	.	.	.
4GG/	.	4G/	.	4e/	.	.	.
=148	=148	=148	=148	=148	=148	=148	=148
4FF/	.	4F/	.	2.cc'\	.	2.aa'\	.
4GG/	.	4G/	.	.	.	.	.
4FF/	.	4F/	.	.	.	.	.
=149	=149	=149	=149	=149	=149	=149	=149
4EE/	.	4E/	.	2.dd'\	.	2.bb\	.
4DD/	.	4D/	.	.	.	.	.
4GG/	.	4G/	.	.	.	.	.
=150	=150	=150	=150	=150	=150	=150	=150
4CC/	.	4C/	.	2.ee'\	.	2.ccc'\	.
4D/	.	4d\	.	.	.	.	.
4C/	.	4c\	.	.	.	.	.
=151	=151	=151	=151	=151	=151	=151	=151
4BB-/	.	4B-/	.	2.ee'\ 2.gg'\	.	2.ccc'\	.
4AA/	.	4A/	.	.	.	.	.
4GG/	.	4G/	.	.	.	.	.
=152	=152	=152	=152	=152	=152	=152	=152
4FF/	.	4F/	.	2.aa'\	.	2.ccc'\	.
4GG/	.	4G/	.	.	.	.	.
4FF/	.	4F/	.	.	.	.	.
=153	=153	=153	=153	=153	=153	=153	=153
4EE/	.	4E/	.	2.bb'\	.	2.ddd\	.
4DD/	.	4D/	.	.	.	.	.
4GG/	.	4G/	.	.	.	.	.
=154	=154	=154	=154	=154	=154	=154	=154
4CC/	.	4C/	.	4ccc\	.	4eee\	.
4r	.	4r	.	4cc\	.	4ccc\	.
4r	.	4r	.	4b\	.	4bb\	.
=155	=155	=155	=155	=155	=155	=155	=155
[2.C/	.	2.r	.	4cc\	.	4ccc\	.
.	.	.	.	4dd\	.	4ddd\	.
.	.	.	.	4ee\	.	4eee\	.
=156	=156	=156	=156	=156	=156	=156	=156
2.C/]	.	[2.D/	.	4dd\	.	4ddd\	.
.	.	.	.	4cc\	.	4ccc\	.
.	.	.	.	4b\	.	4bb\	.
=157	=157	=157	=157	=157	=157	=157	=157
2.BB'/	.	2.D/_	.	4a/	.	4aa\	.
.	.	.	.	4g/	.	4gg\	.
.	.	.	.	4f/	.	4ff\	.
=158	=158	=158	=158	=158	=158	=158	=158
[2.E\	.	2.D/]	.	4e/	.	4ee\	.
.	.	.	.	4f/	.	4ff\	.
.	.	.	.	4g/	.	4gg\	.
=159	=159	=159	=159	=159	=159	=159	=159
2.E\_	.	2.C'/	.	4a/	.	4aa\	.
.	.	.	.	4b\	.	4bb\	.
.	.	.	.	4cc\	.	4ccc\	.
=160	=160	=160	=160	=160	=160	=160	=160
2.E\]	.	[2.F/	.	4b/	.	4bb\	.
.	.	.	.	4a/	.	4aa\	.
.	.	.	.	4g/	.	4gg\	.
=161	=161	=161	=161	=161	=161	=161	=161
2.D'\	.	2.F/_	.	4f/	.	4ff\	.
.	.	.	.	4e/	.	4ee\	.
.	.	.	.	4d/	.	4dd\	.
=162	=162	=162	=162	=162	=162	=162	=162
[2.G\	.	2F/]	.	4c/	.	4cc\	.
.	.	.	.	4d/	.	4dd\	.
.	.	4E/	.	4e/	.	4ee\	.
=163	=163	=163	=163	=163	=163	=163	=163
2G\]	.	2.A/	.	4f/	.	4ff\	.
.	.	.	.	4g/	.	4gg\	.
4F\	.	.	.	4a/	.	4aa\	.
=164	=164	=164	=164	=164	=164	=164	=164
2BB/	.	2B/	.	4g/	.	4gg\	.
.	.	.	.	4f/	.	4ff\	.
4GG/	.	4G/	.	4e/	.	4ee\	.
=165	=165	=165	=165	=165	=165	=165	=165
2D/	.	2d\	.	4d/	.	4dd\	.
.	.	.	.	4c/	.	4cc\	.
4BB/	.	4B/	.	4B/	.	4b\	.
=166	=166	=166	=166	=166	=166	=166	=166
2.r	.	2.r	.	2f/	.	[2.aa-\	.
.	.	.	.	4d/	.	.	.
=167	=167	=167	=167	=167	=167	=167	=167
2.r	.	2f\	.	2b/	.	2.aa-\_	.
.	.	4d\	.	4f/	.	.	.
=168	=168	=168	=168	=168	=168	=168	=168
2.r	.	2b\	.	2dd\	.	2.aa-\_	.
.	.	4f\	.	4b\	.	.	.
=169	=169	=169	=169	=169	=169	=169	=169
2.r	.	2dd\	.	2ff\	.	2.aa-\_	.
.	.	4b\	.	4dd\	.	.	.
*clefC4	*clefG2	*	*	*	*	*	*
=170	=170	=170	=170	=170	=170	=170	=170
4.b;\	.	4.dd;\	.	4.ff;\	.	4.aa-;\]	.
=!|:	=!|:	=!|:	=!|:	=!|:	=!|:	=!|:	=!|:
*MM240	*MM240	*MM240	*MM240	*MM240	*MM240	*MM240	*MM240
*MM240	*MM240	*MM240	*MM240	*MM240	*MM240	*MM240	*MM240
*>D	*>D	*>D	*>D	*>D	*>D	*>D	*>D
*k[b-e-a-]	*k[b-e-a-]	*k[b-e-a-]	*k[b-e-a-]	*k[b-e-a-]	*k[b-e-a-]	*k[b-e-a-]	*k[b-e-a-]
8r	.	8r	.	8r	.	8cc\L	f
4r	.	4r	.	4r	.	8cc\	.
.	.	.	.	.	.	8cc\J	.
*clefF4	*clefF4	*	*	*	*	*	*
=171	=171	=171	=171	=171	=171	=171	=171
4CC/ 4C/	f	8c\L	f	8e-/L	f	4.c/	.
.	.	8d\	.	8f/	.	.	.
4r	.	8e-\	.	8g/	.	.	.
.	.	8f\	.	8a-/	.	8ee-\L	.
4r	.	8e-\	.	8g/	.	8ee-\	.
.	.	8d\J	.	8f/J	.	8ee-\J	.
=172	=172	=172	=172	=172	=172	=172	=172
4CC/ 4C/	.	8c\L	.	8e-/L	.	4.e-/	.
.	.	8d\	.	8f/	.	.	.
4r	.	8e-\	.	8g/	.	.	.
.	.	8f\	.	8a-/	.	8gg\L	.
4r	.	8e-\	.	8g/	.	8gg\	.
.	.	8d\J	.	8f/J	.	8gg\J	.
=173	=173	=173	=173	=173	=173	=173	=173
4CC/ 4C/	.	8c\L	.	8e-/L	.	4cc'\	.
.	.	8d\	.	8f/	.	.	.
4CC/ 4C/	.	8e-\	.	8g/	.	4eee-'\	.
.	.	8f\	.	8a-/	.	.	.
4CC/ 4C/	.	8f#\	.	8an/	.	4cc'\	.
.	.	8f#\J	.	8a/J	.	.	.
=174	=174	=174	=174	=174	=174	=174	=174
4GG/	.	8g\L	.	8bn\L	.	4bn\	.
.	.	8an\	.	8cc\	.	.	.
4r	.	8bn\	.	8dd\	p	8r	.
.	.	8b\	p	8dd\	.	8gg\L	p
4r	.	8b\	.	8dd\	.	8gg\	.
.	.	8b\J	.	8dd\J	.	8gg\J	.
=175	=175	=175	=175	=175	=175	=175	=175
2.r	.	8cc\L	.	8ee-\L	.	8aa-\L	.
.	.	8b-\	.	8dd\	.	8gg\	.
.	.	8an\	.	8cc\	.	8ff#\	.
.	.	8bn\	.	8dd\	.	8gg\	.
.	.	8g\	.	8bn\	.	8dd\	.
.	.	8g\J	.	8b\J	.	8dd\J	.
=176	=176	=176	=176	=176	=176	=176	=176
2.r	.	8g\L	.	8cc/L	.	8ee-\L	.
.	.	8d\	.	8g/	.	8bn\	.
.	.	8e-\	.	8g/	.	8cc\	.
.	.	8Bn\	.	8d/	.	8g\	.
.	.	8c\	.	8e-/	.	8a-\	.
.	.	8c\J	.	8e-/J	.	8a-\J	.
=177	=177	=177	=177	=177	=177	=177	=177
8GG/L	p	4Bn/	.	4d/	.	4g/	.
8AA-/	.	.	.	.	.	.	.
8AA-/	.	4r	.	4r	.	4r	.
8AA-/	.	.	.	.	.	.	.
8AA-/	.	4r	.	4r	.	4r	.
8AA-/J	.	.	.	.	.	.	.
=178	=178	=178	=178	=178	=178	=178	=178
4GG/	.	4r	.	4r	.	4r	.
8r	.	8r	.	8r	.	8r	E
=:|!	=:|!	=:|!	=:|!	=:|!	=:|!	=:|!	=:|!
*>E	*>E	*>E	*>E	*>E	*>E	*>E	*>E
8AA-/L	f	8A-/L	f	8A-/L	f	8A-/L	.
8AA-/	.	8A-/	.	8A-/	.	8A-/	.
8AA-/J	.	8A-/J	.	8A-/J	.	8A-/J	.
=179	=179	=179	=179	=179	=179	=179	=179
4.GG/	.	4.G/	.	4.G/	.	4.G/	.
8AA-/L	.	8A-/L	.	8A-/L	.	8A-/L	.
8AA-/	.	8A-/	.	8A-/	.	8A-/	.
8AA-/J	.	8A-/J	.	8A-/J	.	8A-/J	.
=180	=180	=180	=180	=180	=180	=180	=180
4.GG/	.	4.G/	.	4.G/	.	4.G/	.
8AA-/L	.	8A-/L	.	8A-/L	.	8A-/L	.
8AA-/	.	8A-/	.	8A-/	.	8A-/	.
8AA-/J	.	8A-/J	.	8A-/J	.	8A-/J	.
=181	=181	=181	=181	=181	=181	=181	=181
4.GG/	.	4.G/	.	4.G/	.	4.G/	.
8AA-/L	.	8A-/L	.	8A-/L	.	8A-/L	.
8AA-/	.	8A-/	.	8A-/	.	8A-/	.
8AA-/J	.	8A-/J	.	8A-/J	.	8A-/J	.
=182	=182	=182	=182	=182	=182	=182	=182
4.GG/	.	4.G/	.	4.G/	.	4.G/	.
8DD-/L	.	8D-/L	.	8d-/L	.	8d-/L	.
8DD-/	.	8D-/	.	8d-/	.	8d-/	.
8DD-/J	.	8D-/J	.	8d-/J	.	8d-/J	.
=183	=183	=183	=183	=183	=183	=183	=183
4.CC/	.	4.C/	.	4.c/	.	4.c/	.
8DD-/L	.	8D-/L	.	8d-/L	.	8d-/L	.
8DD-/	.	8D-/	.	8d-/	.	8d-/	.
8DD-/J	.	8D-/J	.	8d-/J	.	8d-/J	.
=184	=184	=184	=184	=184	=184	=184	=184
4.CC/	.	4.C/	.	4.c/	.	4.c/	.
8DD-/L	.	8D-/L	.	8d-/L	.	8d-/L	.
8DD-/	.	8D-/	.	8d-/	.	8d-/	.
8DD-/J	.	8D-/J	.	8d-/J	.	8d-/J	.
=185	=185	=185	=185	=185	=185	=185	=185
4.CC/	.	4.C/	.	4.c/	.	4.c/	.
8DD-/L	.	8D-/L	.	8d-/L	.	8d-/L	.
8DD-/	.	8D-/	.	8d-/	.	8d-/	.
8DD-/J	.	8D-/J	.	8d-/J	.	8d-/J	.
=186	=186	=186	=186	=186	=186	=186	=186
4.CC/	.	4.C/	.	4.c/	.	4.c/	.
8C/L	.	8E-/L	.	8A-/L	.	8a-/L	.
8C/	.	8E-/	.	8A-/	.	8a-/	.
8C/J	.	8E-/J	.	8A-/J	.	8a-/J	.
=187	=187	=187	=187	=187	=187	=187	=187
4D-/	.	8F/ 8A-/L	.	4A-/ 4f/	.	8f/L	.
.	.	8F/ 8A-/	.	.	.	8d-/	.
4r	.	8F/ 8A-/	.	4r	.	8f/	.
.	.	8F/ 8A-/	.	.	.	8a-/	.
4r	.	8F/ 8A-/	.	4r	.	8dd-/	.
.	.	8F/ 8A-/J	.	.	.	8ff/J	.
=188	=188	=188	=188	=188	=188	=188	=188
4D-/	.	8F/ 8A-/L	.	8f/L	.	4aa-\	.
.	.	8F/ 8A-/	.	8d-/	.	.	.
4r	.	8F/ 8A-/	.	8f/	.	4r	.
.	.	8F/ 8A-/	.	8a-/	.	.	.
4r	.	8F/ 8A-/	.	8dd-/	.	4ff\	.
.	.	8F/ 8A-/J	.	8ff/J	.	.	.
=189	=189	=189	=189	=189	=189	=189	=189
4GG-/	ff	8B-\L	ff	[2.b-/	ff	[2.bb-\	ff
.	.	8G-\	.	.	.	.	.
4r	.	8B-\	.	.	.	.	.
.	.	8e-\	.	.	.	.	.
4r	.	8g-\	.	.	.	.	.
.	.	8b-\J	.	.	.	.	.
=190	=190	=190	=190	=190	=190	=190	=190
8GG-/L	.	4E-/	.	4b-/]	.	(8bb-\L]	.
8EE-/	.	.	.	.	.	8aa-\)	.
8GG-/	.	4r	.	4B-/	.	8gg-'\	.
8BB-/	.	.	.	.	.	8ff'\	.
8E-/	.	8E-/L	.	[4g-/	.	8ee-'\	.
8G-/J	.	8E-/J	.	.	.	8dd-'\J	.
=191	=191	=191	=191	=191	=191	=191	=191
4AA-/	.	8E-/L	.	8g-/L]	.	8cc'/L	.
.	.	8E-/	.	8c/	.	8b-'/	.
4r	.	8E-/	.	8c/	.	8a-'/	.
.	.	8E-/	.	8c/	.	8g-'/	.
4r	.	8E-/	.	8c/	.	8f'/	.
.	.	8E-/J	.	8c/J	.	8e-'/J	.
=192	=192	=192	=192	=192	=192	=192	=192
4AA-/	.	8G-/L	.	8e-/L	.	8d-/L	.
.	.	8G-/	.	8e-/	.	8c/	.
4r	.	8G-/	.	8e-/	.	8e-/	.
.	.	8G-/	.	8e-/	.	8c/	.
4r	.	8G-/	.	8e-/	.	8A-/	.
.	.	8G-/J	.	8e-/J	.	8c/J	.
=193	=193	=193	=193	=193	=193	=193	=193
4.D-\	.	4.A-/	.	4.f/	.	4d-/	.
.	.	.	.	.	.	4r	.
8d-\L	f	8f\L	f	8a-/L	f	.	.
8d-\	.	8f\	.	8a-/	.	4r	.
8d-\J	.	8f\J	.	8a-/J	.	.	.
=194	=194	=194	=194	=194	=194	=194	=194
4.d-\	.	4.f\	.	4.a-/	.	4r	.
.	.	.	.	.	.	8r	.
8D-\L	.	8F/L	.	8A-/L	.	8a-/L	f
8D-\	.	8F/	.	8A-/	.	8a-/	.
8D-\J	.	8F/J	.	8A-/J	.	8a-/J	.
=195	=195	=195	=195	=195	=195	=195	=195
4D-/	.	8F/L	.	4A-/	.	8f/L	.
.	.	8F/ 8A-/	.	.	.	8d-/	.
4r	.	8F/ 8A-/	.	4r	.	8f/	.
.	.	8F/ 8A-/	.	.	.	8a-/	.
4r	.	8F/ 8A-/	.	4r	.	8dd-/	.
.	.	8F/ 8A-/J	.	.	.	8ff/J	.
=196	=196	=196	=196	=196	=196	=196	=196
4D-/	.	8F/ 8A-/L	.	8f/L	.	4aa-\	.
.	.	8F/ 8A-/	.	8d-/	.	.	.
4r	.	8F/ 8A-/	.	8f/	.	4r	.
.	.	8F/ 8A-/	.	8a-/	.	.	.
4r	.	8F/ 8A-/	.	8dd-/	.	4ff\	.
.	.	8F/ 8A-/J	.	8ff/J	.	.	.
=197	=197	=197	=197	=197	=197	=197	=197
4BB-/	ff	8F\ 8Gn\L	ff	[2.dd-\	ff	[2.ddd-\	ff
.	.	8G\	.	.	.	.	.
4r	.	8B-\	.	.	.	.	.
.	.	8d-\	.	.	.	.	.
4r	.	8gn\	.	.	.	.	.
.	.	8b-\J	.	.	.	.	.
=198	=198	=198	=198	=198	=198	=198	=198
8BB-/L	.	4B-/	.	4dd-\]	.	(8ddd-\L]	.
8GGn/	.	.	.	.	.	8ccc\)	.
8BB-/	.	4r	.	4d-/	.	8bb-'\	.
8D-/	.	.	.	.	.	8aa-'\	.
8Gn/	.	8G/L	.	[4b-/	.	8ggn'\	.
8B-/J	.	8G/J	.	.	.	8ff'\J	.
=199	=199	=199	=199	=199	=199	=199	=199
4C/	.	8G/L	.	8b-/L]	.	8een'\L	.
.	.	8G/	.	8B-/	.	8dd-'\	.
4r	.	8G/	.	8B-/	.	8cc'\	.
.	.	8G/	.	8B-/	.	8b-'\	.
4r	.	8G/	.	8B-/	.	8a-'\	.
.	.	8G/J	.	8B-/J	.	8gn'\J	.
=200	=200	=200	=200	=200	=200	=200	=200
4C/	.	8G/L	.	8B-/L	.	8f/L	.
.	.	8G/	.	8B-/	.	8en/	.
4r	.	8G/	.	8B-/	.	8g/	.
.	.	8G/	.	8B-/	.	8e/	.
4r	.	8G/	.	8B-/	.	8c/	.
.	.	8G/J	.	8B-/J	.	8e/J	.
=201	=201	=201	=201	=201	=201	=201	=201
4FF/	.	8F/L	.	8A-/L	.	4.f/	.
.	.	8G/	.	8B-/	.	.	.
4r	.	8A-/	.	8c/	.	.	.
.	.	8B-/	.	8d-/	.	8ff\L	.
4r	.	8A-/	.	8c/	.	8ff\	.
.	.	8G/J	.	8B-/J	.	8ff\J	.
=202	=202	=202	=202	=202	=202	=202	=202
4FF/	.	8F/L	.	8A-/L	.	4.f/	.
.	.	8G/	.	8B-/	.	.	.
4r	.	8A-/	.	8c/	.	.	.
.	.	8B-/	.	8d-/	.	8aa-\L	.
4r	.	8A-/	.	8c/	.	8aa-\	.
.	.	8G/J	.	8B-/J	.	8aa-\J	.
=203	=203	=203	=203	=203	=203	=203	=203
4FF/	.	8F/L	.	8A-/L	.	4ff\	.
.	.	8G/	.	8B-/	.	.	.
4FF/	.	8F/	.	8A-/	.	4fff\	.
.	.	8G/	.	8B-/	.	.	.
4FF/	.	8A-/	.	8c/	.	4ff\	.
.	.	8F/J	.	8A-/J	.	.	.
=204	=204	=204	=204	=204	=204	=204	=204
2.r	.	4r	.	4ddn\	p	4r	.
.	.	4r	.	4dn/	.	4fff\	p
.	.	4bn\	p	4r	.	4ff\	.
=205	=205	=205	=205	=205	=205	=205	=205
4r	.	4Bn/	.	2.r	.	4r	.
4dn\	p	4r	.	.	.	4fff\	.
4Dn\	.	4r	.	.	.	4ff\	.
=206	=206	=206	=206	=206	=206	=206	=206
4Bn\	.	4r	.	4r	.	4r	.
4GG/	.	4G/	.	4f/	.	4ddd\	.
8AAn/L	.	4G/	.	4f/	.	4dd\	.
8BBn/J	.	.	.	.	.	.	.
=207	=207	=207	=207	=207	=207	=207	=207
4CC/ 4C/	f	8C/L	f	8e-/L	f	4.c/	f
.	.	8D/	.	8f/	.	.	.
4r	.	8E-/	.	8g/	.	.	.
.	.	8F/	.	8a-/	.	8ee-\L	.
4r	.	8E-/	.	8g/	.	8ee-\	.
.	.	8D/J	.	8f/J	.	8ee-\J	.
=208	=208	=208	=208	=208	=208	=208	=208
4CC/ 4C/	.	8C/L	.	8e-/L	.	4.c/	.
.	.	8D/	.	8f/	.	.	.
4r	.	8E-/	.	8g/	.	.	.
.	.	8F/	.	8a-/	.	8gg\L	.
4r	.	8E-/	.	8g/	.	8gg\	.
.	.	8D/J	.	8f/J	.	8gg\J	.
=209	=209	=209	=209	=209	=209	=209	=209
4CC/ 4C/	.	8C/L	.	8e-/L	.	4cc\	.
.	.	8D/	.	8f/	.	.	.
4CC/ 4C/	.	8C/	.	8e-/	.	4eee-\	.
.	.	8D/	.	8f/	.	.	.
4CC/ 4C/	.	8E-/	.	8g/	.	4cc\	.
.	.	8C/J	.	8e-/J	.	.	.
=210	=210	=210	=210	=210	=210	=210	=210
2.r	.	4r	.	4an/	p	4r	.
.	.	4r	.	4An/	.	4ccc\	p
.	.	4f#\	p	4r	.	4cc\	.
=211	=211	=211	=211	=211	=211	=211	=211
4r	.	4F#/	.	2.r	.	4r	.
4An\	p	4r	.	.	.	4ccc\	.
4AAn/	.	4r	.	.	.	4cc\	.
=212	=212	=212	=212	=212	=212	=212	=212
4F#\	.	4r	.	4r	.	4r	.
4DD/	.	4d\	.	4c/	.	4aan\	.
8EEn/L	.	4d\	.	4c/	.	4an/	.
8FF#/J	.	.	.	.	.	.	.
=213	=213	=213	=213	=213	=213	=213	=213
4GG'/	.	4d\	.	4B-/ 4g/	.	[2.gg\	.
4B-'\	.	4r	.	8r	.	.	.
.	.	.	.	8g/L	.	.	.
4GG'/	.	4r	.	8g/	.	.	.
.	.	.	.	8g/J	.	.	.
=214	=214	=214	=214	=214	=214	=214	=214
4GG/	.	2.r	.	4g/	.	2gg\]	.
4Bn\	.	.	.	8r	.	.	.
.	.	.	.	8g/L	.	.	.
4GG/	.	.	.	8g/	.	4ff\	.
.	.	.	.	8g/J	.	.	.
=215	=215	=215	=215	=215	=215	=215	=215
4GG/	.	2.r	.	4g/	.	(8ff\L	.
.	.	.	.	.	.	8ee-\J)	.
4c\	.	.	.	8r	.	4r	.
.	.	.	.	8g/L	.	.	.
4GG/	.	.	.	8g/	.	4dd\	.
.	.	.	.	8g/J	.	.	.
=216	=216	=216	=216	=216	=216	=216	=216
4GG/	.	2.r	.	4g/	.	(8ff\L	.
.	.	.	.	.	.	8ee-\J)	.
4Bn\	.	.	.	8r	.	4r	.
.	.	.	.	8g/L	.	.	.
4GG/	.	.	.	8g/	.	4dd\	.
.	.	.	.	8g/J	.	.	.
=217	=217	=217	=217	=217	=217	=217	=217
4GG/	.	2.r	.	4g/	.	(8ff\L	.
.	.	.	.	.	.	8ee-\J)	.
4c\	.	.	.	8r	.	4r	.
.	.	.	.	8g/L	.	.	.
4GG/	.	.	.	8g/	.	4dd\	.
.	.	.	.	8g/J	.	.	.
=218	=218	=218	=218	=218	=218	=218	=218
4GG/	.	2.r	.	4g/	.	4ee-\	.
4An\	.	.	.	8r	.	4r	.
.	.	.	.	8g/L	.	.	.
4GG/	.	.	.	8g/	.	4ff#\	.
.	.	.	.	8g/J	.	.	.
=219	=219	=219	=219	=219	=219	=219	=219
4GG/	.	2.r	.	[2.g/	.	[2.gg\	.
4G\	.	.	.	.	.	.	.
4GG/	.	.	.	.	.	.	.
=220	=220	=220	=220	=220	=220	=220	=220
4GG/	.	4r	.	2g/]	.	2gg\]	.
(8GG/L	.	(4Bn/	.	.	.	.	.
8FF/	.	.	.	.	.	.	.
8EE-/	.	8c\L	.	(8an/L	.	(8aan\L	.
8DD/J)	.	8d\J)	.	8bn/J)	.	8bbn\J)	.
=221	=221	=221	=221	=221	=221	=221	=221
4CC/	.	4C/	.	[2.cc\	.	[2.ccc\	.
8r	.	4e-\	.	.	.	.	.
8c\L	.	.	.	.	.	.	.
8c\	.	4C/	.	.	.	.	.
8c\J	.	.	.	.	.	.	.
=222	=222	=222	=222	=222	=222	=222	=222
4c\	.	4C/	.	(2cc\]	.	(2ccc\]	.
8r	.	4en\	.	.	.	.	.
8c\L	.	.	.	.	.	.	.
8c\	.	4C/	.	4b-\)	.	4bb-\)	.
8c\J	.	.	.	.	.	.	.
=223	=223	=223	=223	=223	=223	=223	=223
4c\	.	4C/	.	(8b-\L	.	(8bb-\L	.
.	.	.	.	8a-\J)	.	8aa-\J)	.
8r	.	4f\	.	4r	.	4r	.
8c\L	.	.	.	.	.	.	.
8c\	.	4C/	.	4g/	.	4gg\	.
8c\J	.	.	.	.	.	.	.
=224	=224	=224	=224	=224	=224	=224	=224
4c\	.	4C/	.	(8b-/L	.	(8bb-\L	.
.	.	.	.	8a-/J)	.	8aa-\J)	.
8r	.	4en\	.	4r	.	4r	.
8c\L	.	.	.	.	.	.	.
8c\	.	4C/	.	4g/	.	4gg\	.
8c\J	.	.	.	.	.	.	.
=225	=225	=225	=225	=225	=225	=225	=225
4c\	.	4C/	.	(8b-/L	.	(8bb-\L	.
.	.	.	.	8a-/J)	.	8aa-\J)	.
8r	.	4f\	.	4r	.	4r	.
8c\L	.	.	.	.	.	.	.
8c\	.	4C/	.	4g/	.	4gg\	.
8c\J	.	.	.	.	.	.	.
=226	=226	=226	=226	=226	=226	=226	=226
4c\	.	4C/	.	4a-/	.	4aa-\	.
8r	.	4d\	.	4r	.	4r	.
8c\L	.	.	.	.	.	.	.
8c\	.	4C/	.	4bn\	.	4bbn\	.
8c\J	.	.	.	.	.	.	.
=227	=227	=227	=227	=227	=227	=227	=227
8c\L	.	8e-\L	.	4.cc\	.	4.ccc\	.
8c\J	.	8e-\J	.	.	.	.	.
2e-\	.	2g\	.	.	.	.	.
.	.	.	.	8cc\L	.	8ccc\L	.
.	.	.	.	8cc\	.	8ccc\	.
.	.	.	.	8cc\J	.	8bb-\J	.
=228	=228	=228	=228	=228	=228	=228	=228
8f\L	.	8a-\L	.	4cc\	.	4.aa-\	.
8f\J	.	8a-\J	.	.	.	.	.
2d\	.	2f\	.	8b-\L	.	.	.
.	.	.	.	8b-\	.	8bb-\L	.
.	.	.	.	8b-\	.	8bb-\	.
.	.	.	.	8b-\J	.	8aa-\J	.
=229	=229	=229	=229	=229	=229	=229	=229
8e-\L	.	8g\L	.	4b-/	.	4.gg\	.
8e-\J	.	8g\J	.	.	.	.	.
2c\	.	2e-\	.	8a-/L	.	.	.
.	.	.	.	8a-/	.	8aa-\L	.
.	.	.	.	8a-/	.	8aa-\	.
.	.	.	.	8a-/J	.	8gg\J	.
=230	=230	=230	=230	=230	=230	=230	=230
8d\L	.	8f\L	.	4a-/	.	4.ff\	.
8d\J	.	8f\J	.	.	.	.	.
2Bn\	.	2d\	.	8g/L	.	.	.
.	.	.	.	8g/	.	8gg\L	.
.	.	.	.	8g/	.	8gg\	.
.	.	.	.	8g/J	.	8ff\J	.
=231	=231	=231	=231	=231	=231	=231	=231
8c\L	p	8e-/L	p	4g/	p	4.ee-\	p
8C\J	.	8E-/J	.	.	.	.	.
2E-\	.	2G/	.	8c/L	.	.	.
.	.	.	.	8c/	.	8cc\L	.
.	.	.	.	8c/	.	8cc\	.
.	.	.	.	8c/J	.	8b-\J	.
=232	=232	=232	=232	=232	=232	=232	=232
8F\L	.	8A-/L	.	4c/	.	4.a-/	.
8F\J	.	8A-/J	.	.	.	.	.
2D\	p	2F/	p	8B-/L	p	.	.
.	.	.	.	8B-/	.	8b-/L	p
.	.	.	.	8B-/	.	8b-/	.
.	.	.	.	8B-/J	.	8a-/J	.
=233	=233	=233	=233	=233	=233	=233	=233
8E-\L	.	8G/L	.	4B-/	.	4.g/	.
8E-\J	.	8G/J	.	.	.	.	.
2C/	.	2E-/	.	8A-/L	.	.	.
.	.	.	.	8A-/	.	8a-/L	.
.	.	.	.	8A-/	.	8a-/	.
.	.	.	.	8A-/J	.	8g/J	.
=234	=234	=234	=234	=234	=234	=234	=234
8D/L	.	8F/L	.	4A-/	.	4.f/	.
8D/J	.	8F/J	.	.	.	.	.
2BBn/	.	2D/	.	8G/L	.	.	.
.	.	.	.	8G/	.	8g/L	.
.	.	.	.	8G/	.	8g/	.
.	.	.	.	8G/J	.	8f/J	.
=235	=235	=235	=235	=235	=235	=235	=235
8C/L	.	8E-/L	.	4G/	.	4.e-/	.
8C/J	.	8E-/J	.	.	.	.	.
2AA-/	.	2C/	.	8c/L	.	.	.
.	.	.	.	8c/	.	8f/L	.
.	.	.	.	8c/	.	8e-/	.
.	.	.	.	8c/J	.	8f/J	.
=236	=236	=236	=236	=236	=236	=236	=236
8GG/L	.	8D/L	.	4c/	.	4.g/	.
8GG/J	.	8D/J	.	.	.	.	.
2GG/	.	2D/	.	8Bn/L	.	.	.
.	.	.	.	8B/	.	8g/L	.
.	.	.	.	8B/	.	8g/	.
.	.	.	.	8B/J	.	8f/J	.
=237	=237	=237	=237	=237	=237	=237	=237
8C/L	.	8E-/L	.	4G/	.	4.e-/	.
8C/J	.	8E-/J	.	.	.	.	.
2AA-/	.	2C/	.	8c/L	.	.	.
.	.	.	.	8c/	.	8f/L	.
.	.	.	.	8c/	.	8e-/	.
.	.	.	.	8c/J	.	8f/J	.
=238	=238	=238	=238	=238	=238	=238	=238
8GG/L	.	8D/L	.	4c/	.	4.g/	.
8GG/J	.	8D/J	.	.	.	.	.
2GG/	.	2D/	.	8Bn/L	.	.	.
.	.	.	.	8B/	.	8g/L	.
.	.	.	.	8B/	.	8g/	.
.	.	.	.	8B/J	.	8g/J	.
=239	=239	=239	=239	=239	=239	=239	=239
8GG/L	pp	4D/	pp	4Bn/	pp	4g/	pp
8GG/	.	.	.	.	.	.	.
8AA-/	.	4r	.	4r	.	4r	.
8AA-/	.	.	.	.	.	.	.
8GG/	.	4r	.	4r	.	4r	.
8GG/J	.	.	.	.	.	.	.
=240	=240	=240	=240	=240	=240	=240	=240
8FF/L	.	2.r	.	4c/	.	4a-/	.
8FF/	.	.	.	.	.	.	.
8GG/	.	.	.	4r	.	4r	.
8GG/	.	.	.	.	.	.	.
8FF/	.	.	.	4r	.	4r	.
8FF/J	.	.	.	.	.	.	.
=241	=241	=241	=241	=241	=241	=241	=241
8EE-/L	.	4G/	.	4c/	.	4an/	.
8EE-/	.	.	.	.	.	.	.
8FF/	.	4r	.	4r	.	4r	.
8FF/	.	.	.	.	.	.	.
8EE-/	.	4r	.	4r	.	4r	.
8EE-/J	.	.	.	.	.	.	.
=242	=242	=242	=242	=242	=242	=242	=242
8DD/L	.	4G/	.	4d/	.	4bn\	.
8DD/	.	.	.	.	.	.	.
8EE-/	.	4r	.	4r	.	4r	.
8EE-/	.	.	.	.	.	.	.
8DD/	.	4r	.	4r	.	4r	.
8DD/J	.	.	.	.	.	.	.
=243	=243	=243	=243	=243	=243	=243	=243
8CC/L	.	4G/	.	4e-/	.	4cc\	.
8GG/	.	.	.	.	.	.	.
8GG/	.	4r	.	4r	.	4r	.
8GG/	.	.	.	.	.	.	.
8GG/	.	8G/L	pp	8d/L	.	8bn\L	pp
8GG/J	pp	8G/J	pp	8d/J	.	8b\J	.
=244	=244	=244	=244	=244	=244	=244	=244
8CC/L	.	4G/	.	4e-/	.	4cc\	.
8GG/	.	.	.	.	.	.	.
8GG/	.	4r	.	4r	.	4r	.
8GG/	.	.	.	.	.	.	.
8GG/	.	8G/L	.	8d/L	.	8bn\L	.
8GG/J	.	8G/J	.	8d/J	.	8b\J	.
=245	=245	=245	=245	=245	=245	=245	=245
8CC/L	.	4G/	.	4e-/	.	4cc\	.
8GG/	.	.	.	.	.	.	.
8GG/	.	4r	.	4r	.	4r	.
8GG/	.	.	.	.	.	.	.
8GG/	.	8G/L	.	8d/L	.	8bn\L	.
8GG/J	.	8G/J	.	8d/J	.	8b\J	.
=246	=246	=246	=246	=246	=246	=246	=246
8CC/L	.	4G/	.	4e-/	.	4cc\	.
8GG/	.	.	.	.	.	.	.
8GG/	.	4r	.	4r	.	4r	.
8GG/	.	.	.	.	.	.	.
8GG/	.	8G/L	.	8d/L	.	8bn\L	.
8GG/J	.	8G/J	.	8d/J	.	8b\J	.
=247	=247	=247	=247	=247	=247	=247	=247
*k[]	*k[]	*k[]	*k[]	*k[]	*k[]	*k[]	*k[]
*MM480	*MM480	*MM480	*MM480	*MM480	*MM480	*MM480	*MM480
4CC/	.	4C/ 4G/	f	4c/ 4en/	f	4G/ 4en/ 4cc/	f
4r	.	4r	.	4r	.	4r	.
4r	.	4r	.	4r	.	4r	.
=248	=248	=248	=248	=248	=248	=248	=248
4c\	ff	2.r	.	2.r	.	2.r	.
4d\	.	.	.	.	.	.	.
4e\	.	.	.	.	.	.	.
=249	=249	=249	=249	=249	=249	=249	=249
4d\	.	2.r	.	2.r	.	2.r	.
4c\	.	.	.	.	.	.	.
4B\	.	.	.	.	.	.	.
=250	=250	=250	=250	=250	=250	=250	=250
4A\	.	2.r	.	2.r	.	2.r	.
4G\	.	.	.	.	.	.	.
4F\	.	.	.	.	.	.	.
=251	=251	=251	=251	=251	=251	=251	=251
4E\	.	2.r	.	2.r	.	2.r	.
4F\	.	.	.	.	.	.	.
4G\	.	.	.	.	.	.	.
=252	=252	=252	=252	=252	=252	=252	=252
4A\	.	2.r	.	2.r	.	2.r	.
4B\	.	.	.	.	.	.	.
4c\	.	.	.	.	.	.	.
=253	=253	=253	=253	=253	=253	=253	=253
4B\	.	2.r	.	2.r	.	2.r	.
4A\	.	.	.	.	.	.	.
4G\	.	.	.	.	.	.	.
=254	=254	=254	=254	=254	=254	=254	=254
4F\	.	2.r	.	2.r	.	2.r	.
4E\	.	.	.	.	.	.	.
4D\	.	.	.	.	.	.	.
=255	=255	=255	=255	=255	=255	=255	=255
4C/	.	2.r	.	2.r	.	2.r	.
4D\	.	.	.	.	.	.	.
4E\	.	.	.	.	.	.	.
=256	=256	=256	=256	=256	=256	=256	=256
4F\	.	[2.c\	ff	2.r	.	2.r	.
4G\	.	.	.	.	.	.	.
4A\	.	.	.	.	.	.	.
=257	=257	=257	=257	=257	=257	=257	=257
4G\	.	2.c\]	.	2.r	.	2.r	.
4F\	.	.	.	.	.	.	.
4E\	.	.	.	.	.	.	.
=258	=258	=258	=258	=258	=258	=258	=258
4D/	.	2.d'\	.	2.r	.	2.r	.
4C/	.	.	.	.	.	.	.
4BB/	.	.	.	.	.	.	.
=259	=259	=259	=259	=259	=259	=259	=259
4AA/	.	2.e'\	.	2.r	.	2.r	.
4BB/	.	.	.	.	.	.	.
4C/	.	.	.	.	.	.	.
=260	=260	=260	=260	=260	=260	=260	=260
4D\	.	2.d'\	.	2.r	.	2.r	.
4E\	.	.	.	.	.	.	.
4F#\	.	.	.	.	.	.	.
=261	=261	=261	=261	=261	=261	=261	=261
4G\	.	2.B'/	.	2.r	.	2.r	.
4F#\	.	.	.	.	.	.	.
4E\	.	.	.	.	.	.	.
=262	=262	=262	=262	=262	=262	=262	=262
4D/	.	2.d'\	.	2.r	.	2.r	.
4C/	.	.	.	.	.	.	.
4BB/	.	.	.	.	.	.	.
=263	=263	=263	=263	=263	=263	=263	=263
4AA/	.	2.e'\	.	2.r	.	2.r	.
4BB/	.	.	.	.	.	.	.
4C/	.	.	.	.	.	.	.
=264	=264	=264	=264	=264	=264	=264	=264
4D\	.	2.d'\	.	2.r	.	2.r	.
4E\	.	.	.	.	.	.	.
4F#\	.	.	.	.	.	.	.
=265	=265	=265	=265	=265	=265	=265	=265
4G\	.	4B/	.	2.r	.	2.r	.
4r	.	4r	.	.	.	.	.
4r	.	4r	.	.	.	.	.
=266	=266	=266	=266	=266	=266	=266	=266
2.r	.	2.r	.	[2.c/	ff	4ccc\	ff
.	.	.	.	.	.	4ddd\	.
.	.	.	.	.	.	4eee\	.
=267	=267	=267	=267	=267	=267	=267	=267
2.r	.	[2.d\	ff	2.c/]	.	4ddd\	.
.	.	.	.	.	.	4ccc\	.
.	.	.	.	.	.	4bb\	.
=268	=268	=268	=268	=268	=268	=268	=268
2.r	.	2.d\_	.	2.B'/	.	4aa\	.
.	.	.	.	.	.	4gg\	.
.	.	.	.	.	.	4ff\	.
=269	=269	=269	=269	=269	=269	=269	=269
2.r	.	2.d\]	.	[2.e/	.	4ee\	.
.	.	.	.	.	.	4ff\	.
.	.	.	.	.	.	4gg\	.
=270	=270	=270	=270	=270	=270	=270	=270
2.r	.	2.c'\	.	2.e/_	.	4aa\	.
.	.	.	.	.	.	4bb\	.
.	.	.	.	.	.	4ccc\	.
=271	=271	=271	=271	=271	=271	=271	=271
2.r	.	[2.f\	.	2.e/]	.	4bb\	.
.	.	.	.	.	.	4aa\	.
.	.	.	.	.	.	4gg\	.
=272	=272	=272	=272	=272	=272	=272	=272
2.r	.	2.f\_	.	2.d'/	.	4ff\	.
.	.	.	.	.	.	4ee\	.
.	.	.	.	.	.	4dd\	.
=273	=273	=273	=273	=273	=273	=273	=273
2.r	.	2f\]	.	2.g'/	.	4cc\	.
.	.	.	.	.	.	4dd\	.
.	.	4e\	.	.	.	4ee\	.
=274	=274	=274	=274	=274	=274	=274	=274
[2.AA/	ff	[2.c/	.	[2.cc\	.	4ff\	.
.	.	.	.	.	.	4gg\	.
.	.	.	.	.	.	4aa\	.
=275	=275	=275	=275	=275	=275	=275	=275
2.AA/]	.	2.c/]	.	2.cc\]	.	4ff#\	.
.	.	.	.	.	.	4gg\	.
.	.	.	.	.	.	4aa\	.
=276	=276	=276	=276	=276	=276	=276	=276
2.GG'/	.	2.B'/	.	2.dd'\	.	4bb\	.
.	.	.	.	.	.	4ccc\	.
.	.	.	.	.	.	4ddd\	.
=277	=277	=277	=277	=277	=277	=277	=277
2.CC'/	.	2.C'/ 2.c'/	.	2.ee'\	.	4aa\	.
.	.	.	.	.	.	4eee\	.
.	.	.	.	.	.	4eee\	.
=278	=278	=278	=278	=278	=278	=278	=278
2.DD'/	.	2.D'/ 2.c'/	.	2.dd'\	.	4ddd\	.
.	.	.	.	.	.	4eee\	.
.	.	.	.	.	.	4fff#\	.
=279	=279	=279	=279	=279	=279	=279	=279
2.GG'/	.	2.D'/ 2.B'/	.	2.b'\	.	4ggg\	.
.	.	.	.	.	.	4fff#\	.
.	.	.	.	.	.	4eee\	.
=280	=280	=280	=280	=280	=280	=280	=280
2.G'\	.	2.D'/ 2.c'/	.	2.dd'\	.	4ddd\	.
.	.	.	.	.	.	4ccc\	.
.	.	.	.	.	.	4bb\	.
=281	=281	=281	=281	=281	=281	=281	=281
2.C'/	.	2.D'/ 2.c'/	.	2.ee'\	.	4aa\	.
.	.	.	.	.	.	4eee\	.
.	.	.	.	.	.	4eee\	.
=282	=282	=282	=282	=282	=282	=282	=282
2.D'/	.	2.D'/ 2.c'/	.	2.d'/ 2.dd'/	.	4ddd\	.
.	.	.	.	.	.	4eee\	.
.	.	.	.	.	.	4fff#\	.
=283	=283	=283	=283	=283	=283	=283	=283
4BB/	.	4D/ 4B/	.	4d/ 4b/	.	4ggg\	.
4r	.	4r	.	4r	.	4r	.
4r	.	4r	.	4r	.	4r	.
=284	=284	=284	=284	=284	=284	=284	=284
[2.GG/	.	[2.G/	.	2.r	.	4gg\	.
.	.	.	.	.	.	4aa\	.
.	.	.	.	.	.	4bb\	.
=285	=285	=285	=285	=285	=285	=285	=285
2.GG/]	.	2.G/]	.	2.r	.	4aa\	.
.	.	.	.	.	.	4gg\	.
.	.	.	.	.	.	4ffn\	.
=286	=286	=286	=286	=286	=286	=286	=286
2.AA'/	.	2.A'/	.	2.r	.	4ee\	.
.	.	.	.	.	.	4dd\	.
.	.	.	.	.	.	4cc#\	.
=287	=287	=287	=287	=287	=287	=287	=287
2.BB-'/	.	2.B-'/	.	2.r	.	4b-\	.
.	.	.	.	.	.	4a/	.
.	.	.	.	.	.	4g/	.
=288	=288	=288	=288	=288	=288	=288	=288
2.C#'/	.	2.c#'\	.	2.r	.	4fn/	.
.	.	.	.	.	.	4e/	.
.	.	.	.	.	.	4d/	.
=289	=289	=289	=289	=289	=289	=289	=289
2.E'\	.	2.e'\	.	2.r	.	4c#/	.
.	.	.	.	.	.	4B-/	.
.	.	.	.	.	.	4A/	.
=290	=290	=290	=290	=290	=290	=290	=290
4G\	.	4g\	.	2.G'/	.	2.G/ 2.g/	.
4F\	.	4f\	.	.	.	.	.
4E\	.	4e\	.	.	.	.	.
=291	=291	=291	=291	=291	=291	=291	=291
4D/	.	4d\	.	2.c#'/	.	2.cc#\	.
4C#/	.	4c#\	.	.	.	.	.
4BB-/	.	4B-/	.	.	.	.	.
=292	=292	=292	=292	=292	=292	=292	=292
4AA/	.	4A/	.	2.e'/	.	2.ee\	.
4GG/	.	4G/	.	.	.	.	.
4FF/	.	4F/	.	.	.	.	.
=293	=293	=293	=293	=293	=293	=293	=293
4EE/	.	4E/	.	2.ee'\ 2.gg'\	.	2.cc#'\ 2.aa'\	.
4DD/	.	4D/	.	.	.	.	.
4CC#/	.	4C#/	.	.	.	.	.
=294	=294	=294	=294	=294	=294	=294	=294
4EE/	.	4E/	.	2.ee'\ 2.gg'\	.	2.cc#'\ 2.aa'\	.
4AA/	.	4A/	.	.	.	.	.
4C#/	.	4c#/	.	.	.	.	.
=295	=295	=295	=295	=295	=295	=295	=295
4E\	.	4e\	.	4g/	.	4cc#\ 4aa\	.
4r	.	4r	.	4r	.	4r	.
4r	.	4r	.	4r	.	4r	.
=296	=296	=296	=296	=296	=296	=296	=296
[2.DD/	.	[2.D/	.	2.r	.	4ff\	.
.	.	.	.	.	.	4gg\	.
.	.	.	.	.	.	4aa\	f
=297	=297	=297	=297	=297	=297	=297	=297
2.DD/]	f	2.D/]	f	2.r	.	4gg\	.
.	.	.	.	.	.	4ff\	.
.	.	.	.	.	.	4ee\	.
=298	=298	=298	=298	=298	=298	=298	=298
2.EE'/	.	2.E'/	.	2.r	.	4dd\	.
.	.	.	.	.	.	4ccn\	.
.	.	.	.	.	.	4bn\	.
=299	=299	=299	=299	=299	=299	=299	=299
2.FF'/	.	2.F'/	.	2.r	.	4a/	.
.	.	.	.	.	.	4g/	.
.	.	.	.	.	.	4f/	.
=300	=300	=300	=300	=300	=300	=300	=300
2.BBn'/	.	2.Bn'/	.	2.r	.	4e/	.
.	.	.	.	.	.	4d/	.
.	.	.	.	.	.	4cn/	.
=301	=301	=301	=301	=301	=301	=301	=301
2.D'\	.	2.d'\	.	2.r	.	4Bn/	.
.	.	.	.	.	.	4A/	.
.	.	.	.	.	.	4G/	.
=302	=302	=302	=302	=302	=302	=302	=302
4F\	.	4f\	.	2.f'/	.	2.ff'\	.
4E\	.	4e\	.	.	.	.	.
4D\	.	4d\	.	.	.	.	.
=303	=303	=303	=303	=303	=303	=303	=303
4Cn/	.	4cn\	.	2.b'\	.	2.bb'\	.
4BB/	.	4B/	.	.	.	.	.
4AA/	.	4A/	.	.	.	.	.
=304	=304	=304	=304	=304	=304	=304	=304
4GG/	.	4G/	.	2.dd'\	.	2.ddd\	.
4FF/	.	4F/	.	.	.	.	.
4EE/	.	4E/	.	.	.	.	.
=305	=305	=305	=305	=305	=305	=305	=305
4DD/	.	4D/	.	2.dd'\ 2.ff'\	.	2.b'\ 2.gg'\	.
4CC/	.	4C/	.	.	.	.	.
4BB/	.	4D/	.	.	.	.	.
=306	=306	=306	=306	=306	=306	=306	=306
4D\	.	4F/	.	2.dd'\ 2.ff'\	.	2.b'\ 2.gg'\	.
4F\	.	4B/	.	.	.	.	.
4B\	.	4d\	.	.	.	.	.
=307	=307	=307	=307	=307	=307	=307	=307
4d\	.	4f\	.	4dd\ 4ff\	.	4b\ 4gg\	.
4r	.	4r	.	4r	.	4r	.
4r	.	4r	.	4r	.	4r	.
=308	=308	=308	=308	=308	=308	=308	=308
4c\	.	4cc\	.	2.r	.	[2.cc\	.
4d\	.	4dd\	.	.	.	.	.
4e\	.	4ee\	.	.	.	.	.
=309	=309	=309	=309	=309	=309	=309	=309
4d\	.	4dd\	.	[2.dd\	.	2.cc\]	.
4c\	.	4cc\	.	.	.	.	.
4B\	.	4b\	.	.	.	.	.
=310	=310	=310	=310	=310	=310	=310	=310
4A\	.	4a\	.	2.dd\_	.	2.b'\	.
4G\	.	4g\	.	.	.	.	.
4F\	.	4f\	.	.	.	.	.
=311	=311	=311	=311	=311	=311	=311	=311
4E\	.	4e\	.	2.dd\]	.	[2.ee\	.
4F\	.	4f\	.	.	.	.	.
4G\	.	4g\	.	.	.	.	.
=312	=312	=312	=312	=312	=312	=312	=312
4A\	.	4a\	.	2.cc'\	.	2.ee\_	.
4B\	.	4b\	.	.	.	.	.
4c\	.	4cc\	.	.	.	.	.
=313	=313	=313	=313	=313	=313	=313	=313
4B\	.	4b\	.	[2.ff\	.	2.ee\]	.
4A\	.	4a\	.	.	.	.	.
4G\	.	4g\	.	.	.	.	.
=314	=314	=314	=314	=314	=314	=314	=314
4A\	.	4f\	.	2.ff\_	.	2.dd'\	.
4E\	.	4e\	.	.	.	.	.
4D\	.	4d\	.	.	.	.	.
=315	=315	=315	=315	=315	=315	=315	=315
4C/	.	4c\	.	2.ff\]	.	[2.gg\	.
4D/	.	4d\	.	.	.	.	.
4C/	.	4c\	.	.	.	.	.
=316	=316	=316	=316	=316	=316	=316	=316
4BB-/	.	4B-/	.	2ee\	.	2.gg\]	.
4AA/	.	4A/	.	.	.	.	.
4GG/	.	4G/	.	4e/	.	.	.
=317	=317	=317	=317	=317	=317	=317	=317
4FF/	.	4F/	.	2.cc'\	.	2.aa'\	.
4GG/	.	4G/	.	.	.	.	.
4FF/	.	4F/	.	.	.	.	.
=318	=318	=318	=318	=318	=318	=318	=318
4EE/	.	4E/	.	2.dd'\	.	2.bb'\	.
4DD/	.	4D/	.	.	.	.	.
4GG/	.	4G/	.	.	.	.	.
=319	=319	=319	=319	=319	=319	=319	=319
4CC/	.	4C/	.	2.ee'\	.	2.ccc'\	.
4D/	.	4d\	.	.	.	.	.
4C/	.	4c\	.	.	.	.	.
=320	=320	=320	=320	=320	=320	=320	=320
4BB-/	.	4B-/	.	2.ee'\ 2.gg'\	.	2.ccc'\	.
4AA/	.	4A/	.	.	.	.	.
4GG/	.	4G/	.	.	.	.	.
=321	=321	=321	=321	=321	=321	=321	=321
4FF/	.	4F/	.	2.aa'\	.	2.ccc'\	.
4GG/	.	4G/	.	.	.	.	.
4FF/	.	4F/	.	.	.	.	.
=322	=322	=322	=322	=322	=322	=322	=322
4EE/	.	4E/	.	2.bb'\	.	2.ddd'\	.
4DD/	.	4D/	.	.	.	.	.
4GG/	.	4G/	.	.	.	.	.
=323	=323	=323	=323	=323	=323	=323	=323
4CC/	.	4C/	.	4ccc\	.	4eee\	.
4r	.	4r	.	4cc\	.	4ccc\	.
4r	.	4r	.	4b\	.	4bb\	.
=324	=324	=324	=324	=324	=324	=324	=324
[2.C/	.	2.r	.	4cc\	.	4ccc\	.
.	.	.	.	4dd\	.	4ddd\	.
.	.	.	.	4ee\	.	4eee\	.
=325	=325	=325	=325	=325	=325	=325	=325
2.C/]	.	[2.D/	.	4dd\	.	4ddd\	.
.	.	.	.	4cc\	.	4ccc\	.
.	.	.	.	4b\	.	4bb\	.
=326	=326	=326	=326	=326	=326	=326	=326
2.BBn'/	.	2.D/_	.	4a/	.	4aa\	.
.	.	.	.	4g/	.	4gg\	.
.	.	.	.	4f/	.	4ff\	.
=327	=327	=327	=327	=327	=327	=327	=327
[2.E\	.	2.D/]	.	4e/	.	4ee\	.
.	.	.	.	4f/	.	4ff\	.
.	.	.	.	4g/	.	4gg\	.
=328	=328	=328	=328	=328	=328	=328	=328
2.E\_	.	2.C'/	.	4a/	.	4aa\	.
.	.	.	.	4b/	.	4bb\	.
.	.	.	.	4cc\	.	4ccc\	.
=329	=329	=329	=329	=329	=329	=329	=329
2.E\]	.	[2.F/	.	4b\	.	4bb\	.
.	.	.	.	4a/	.	4aa\	.
.	.	.	.	4g/	.	4gg\	.
=330	=330	=330	=330	=330	=330	=330	=330
2.D'\	.	2.F/_	.	4f/	.	4ff\	.
.	.	.	.	4e/	.	4ee\	.
.	.	.	.	4d/	.	4dd\	.
=331	=331	=331	=331	=331	=331	=331	=331
[2.G\	.	2F/]	.	4c/	.	4cc\	.
.	.	.	.	4d/	.	4dd\	.
.	.	4E/	.	4e/	.	4ee\	.
=332	=332	=332	=332	=332	=332	=332	=332
2G\]	.	2.A/	.	4f/	.	4ff\	.
.	.	.	.	4g/	.	4gg\	.
4F\	.	.	.	4a/	.	4aa\	.
=333	=333	=333	=333	=333	=333	=333	=333
2BB/	.	2B/	.	4g/	.	4gg\	.
.	.	.	.	4f/	.	4ff\	.
4GG/	.	4G/	.	4e/	.	4ee\	.
=334	=334	=334	=334	=334	=334	=334	=334
2D/	.	2d\	.	4d/	.	4dd\	.
.	.	.	.	4c/	.	4cc\	.
4BB/	.	4B/	.	4B/	.	4b\	.
=335	=335	=335	=335	=335	=335	=335	=335
2.r	.	2.r	.	2f/	.	[2.aa-\	.
.	.	.	.	4d/	.	.	.
=336	=336	=336	=336	=336	=336	=336	=336
2.r	.	2f\	.	2b/	.	2.aa-\_	.
.	.	4d\	.	4f/	.	.	.
=337	=337	=337	=337	=337	=337	=337	=337
2.r	.	2b\	.	2dd\	.	2.aa-\_	.
.	.	4f\	.	4b\	.	.	.
=338	=338	=338	=338	=338	=338	=338	=338
2.r	.	2dd\	.	2ff\	.	2.aa-\_	.
.	.	4b\	.	4dd\	.	.	.
*clefC4	*clefG2	*	*	*	*	*	*
=339	=339	=339	=339	=339	=339	=339	=339
4.b;\	.	4.dd;\	.	4.ff;\	.	4.aa-;\]	.
=	=	=	=	=	=	=	=
*k[b-e-a-]	*k[b-e-a-]	*k[b-e-a-]	*k[b-e-a-]	*k[b-e-a-]	*k[b-e-a-]	*k[b-e-a-]	*k[b-e-a-]
*MM240	*MM240	*MM240	*MM240	*MM240	*MM240	*MM240	*MM240
8r	.	8r	.	8r	.	8cc\L	f
4r	.	4r	.	4r	.	8cc\	.
.	.	.	.	.	.	8cc\J	.
*clefF4	*clefF4	*	*	*	*	*	*
=340	=340	=340	=340	=340	=340	=340	=340
4CC/ 4C/	f	8c\L	f	8e-/L	f	4.c/	.
.	.	8d\	.	8f/	.	.	.
4r	.	8e-\	.	8g/	.	.	.
.	.	8f\	.	8a-/	.	8ee-\L	.
4r	.	8e-\	.	8g/	.	8ee-\	.
.	.	8d\J	.	8f/J	.	8ee-\J	.
=341	=341	=341	=341	=341	=341	=341	=341
4CC/ 4C/	.	8c\L	.	8e-/L	.	4.e-/	.
.	.	8d\	.	8f/	.	.	.
4r	.	8e-\	.	8g/	.	.	.
.	.	8f\	.	8a-/	.	8gg\L	.
4r	.	8e-\	.	8g/	.	8gg\	.
.	.	8d\J	.	8f/J	.	8gg\J	.
=342	=342	=342	=342	=342	=342	=342	=342
4CC/ 4C/	.	8c\L	.	8e-/L	.	4cc\	.
.	.	8d\	.	8f/	.	.	.
4CC/ 4C/	.	8e-\	.	8g/	.	4eee-\	.
.	.	8f\	.	8a-/	.	.	.
4CC/ 4C/	.	8f#\	.	8an/	.	4cc\	.
.	.	8f#\J	.	8a/J	.	.	.
=343	=343	=343	=343	=343	=343	=343	=343
4GG/	.	8g\L	.	8bn\L	.	4bn\	.
.	.	8an\	.	8cc\	.	.	.
4r	.	8bn\	.	8dd\	.	8r	.
.	.	8b\	.	8dd\	.	8gg\L	.
4r	.	8b\	.	8dd\	.	8gg\	.
.	.	8b\J	.	8dd\J	.	8gg\J	.
=344	=344	=344	=344	=344	=344	=344	=344
2.r	.	8cc\L	.	8ee-\L	.	8aa-\L	.
.	.	8b-\	.	8dd\	.	8gg\	.
.	.	8an\	.	8cc\	.	8ff#\	.
.	.	8bn\	.	8dd\	.	8gg\	.
.	.	8g\	.	8bn\	.	8dd\	.
.	.	8g\J	.	8b\J	.	8dd\J	.
=345	=345	=345	=345	=345	=345	=345	=345
2.r	.	8g\L	.	8cc/L	.	8ee-\L	.
.	.	8d\	.	8g/	.	8bn\	.
.	.	8e-\	.	8g/	.	8cc\	.
.	.	8Bn\	.	8d/	.	8g\	.
.	.	8c\	.	8e-/	.	8a-\	.
.	.	8c\J	.	8e-/J	.	8a-\J	.
=346	=346	=346	=346	=346	=346	=346	=346
8GG/L	.	4Bn/	.	4d/	.	4g/	.
8AA-/	.	.	.	.	.	.	.
8AA-/	.	4r	.	4r	.	4r	.
8AA-/	.	.	.	.	.	.	.
8AA-/	.	4r	.	4r	.	4r	.
8AA-/J	.	.	.	.	.	.	.
=347	=347	=347	=347	=347	=347	=347	=347
4GG/	.	2.r	.	2.r	.	4r	.
4r	.	.	.	.	.	8r	.
.	.	.	.	.	.	8cc\L	p
4r	.	.	.	.	.	8cc\	.
.	.	.	.	.	.	8cc\J	.
=348	=348	=348	=348	=348	=348	=348	=348
4CC/ 4C/	p	8c\L	p	8e-/L	p	4.c/	.
.	.	8d\	.	8f/	.	.	.
4r	.	8e-\	.	8g/	.	.	.
.	.	8f\	.	8a-/	.	8ee-\L	.
4r	.	8e-\	.	8g/	.	8ee-\	.
.	.	8d\J	.	8f/J	.	8ee-\J	.
=349	=349	=349	=349	=349	=349	=349	=349
4CC/ 4C/	.	8c\L	.	8e-/L	.	4.e-/	.
.	.	8d\	.	8f/	.	.	.
4r	.	8e-\	.	8g/	.	.	.
.	.	8f\	.	8a-/	.	8gg\L	.
4r	.	8e-\	.	8g/	.	8gg\	.
.	.	8d\J	.	8f/J	.	8gg\J	.
=350	=350	=350	=350	=350	=350	=350	=350
4CC/ 4C/	.	8c\L	.	8e-/L	.	4cc\	.
.	.	8d\	.	8f/	.	.	.
4CC/ 4C/	.	8e-\	.	8g/	.	4eee-\	.
.	.	8f\	.	8a-/	.	.	.
4CC/ 4C/	.	8f#\	.	8an/	.	4cc\	.
.	.	8f#\J	.	8a/J	.	.	.
=351	=351	=351	=351	=351	=351	=351	=351
4GG/	.	8g\L	.	8bn\L	.	4bn\	.
.	.	8an\	.	8cc\	.	.	.
4r	.	8bn\	.	8dd\	.	8r	.
.	.	8b\	.	8dd\	.	8gg\L	.
4r	.	8b\	.	8dd\	.	8gg\	.
.	.	8b\J	.	8dd\J	.	8gg\J	.
=352	=352	=352	=352	=352	=352	=352	=352
2.r	.	8cc\L	.	8ee-\L	.	8aa-\L	.
.	.	8b-\	.	8dd\	.	8gg\	.
.	.	8an\	.	8cc\	.	8ff#\	.
.	.	8bn\	.	8dd\	.	8gg\	.
.	.	8g\	.	8bn\	.	8dd\	.
.	.	8g\J	.	8b\J	.	8dd\J	.
=353	=353	=353	=353	=353	=353	=353	=353
2.r	.	8g\L	.	8cc/L	.	8ee-\L	.
.	.	8d\	.	8g/	.	8bn\	.
.	.	8e-\	.	8g/	.	8cc\	.
.	.	8Bn\	.	8d/	.	8g\	.
.	.	8c\	.	8e-/	.	8a-\	.
.	.	8c\J	.	8e-/J	.	8a-\J	.
=354	=354	=354	=354	=354	=354	=354	=354
8GG/L	.	4Bn/	.	4d/	.	4g/	.
8AA-/	.	.	.	.	.	.	.
8AA-/	.	4r	.	4r	.	4r	.
8AA-/	p	.	.	.	.	.	.
8AA-/	.	4r	.	4r	.	4r	.
8AA-/J	.	.	.	.	.	.	.
=355	=355	=355	=355	=355	=355	=355	=355
4GG/	.	4r	.	4r	.	4r	.
8r	.	8r	.	8r	.	8r	.
8AA-/L	.	8A-/L	.	8A-/L	.	8A-/L	.
8AA-/	.	8A-/	.	8A-/	.	8A-/	.
8AA-/J	.	8A-/J	p	8A-/J	p	8A-/J	p
=356	=356	=356	=356	=356	=356	=356	=356
4.GG/	.	4.G/	.	4.G/	.	4.G/	.
8AA-/L	.	8A-/L	.	8A-/L	.	8A-/L	.
8AA-/	.	8A-/	.	8A-/	.	8A-/	.
8AA-/J	.	8A-/J	.	8A-/J	.	8A-/J	.
=357	=357	=357	=357	=357	=357	=357	=357
4.GG/	.	4.G/	.	4.G/	.	4.G/	.
8AA-/L	.	8A-/L	.	8A-/L	.	8A-/L	.
8AA-/	.	8A-/	.	8A-/	.	8A-/	.
8AA-/J	.	8A-/J	.	8A-/J	.	8A-/J	.
=358	=358	=358	=358	=358	=358	=358	=358
4.GG/	.	4.G/	.	4.G/	.	4.G/	.
8AA-/L	.	8A-/L	.	8A-/L	.	8A-/L	.
8AA-/	.	8A-/	.	8A-/	.	8A-/	.
8AA-/J	.	8A-/J	.	8A-/J	.	8A-/J	.
=359	=359	=359	=359	=359	=359	=359	=359
4.GG/	.	4.G/	.	4.G/	.	4.G/	.
8DD-/L	.	8D-/L	.	8d-/L	.	8d-/L	.
8DD-/	.	8D-/	.	8d-/	.	8d-/	.
8DD-/J	.	8D-/J	.	8d-/J	.	8d-/J	.
=360	=360	=360	=360	=360	=360	=360	=360
4.CC/	.	4.C/	.	4.c/	.	4.c/	.
8DD-/L	.	8D-/L	.	8d-/L	.	8d-/L	.
8DD-/	.	8D-/	.	8d-/	.	8d-/	.
8DD-/J	.	8D-/J	.	8d-/J	.	8d-/J	.
=361	=361	=361	=361	=361	=361	=361	=361
4.CC/	.	4.C/	.	4.c/	.	4.c/	.
8DD-/L	.	8D-/L	.	8d-/L	.	8d-/L	.
8DD-/	.	8D-/	.	8d-/	.	8d-/	.
8DD-/J	.	8D-/J	.	8d-/J	.	8d-/J	.
=362	=362	=362	=362	=362	=362	=362	=362
4.CC/	.	4.C/	.	4.c/	.	4.c/	.
8DD-/L	.	8D-/L	.	8d-/L	.	8d-/L	.
8DD-/	.	8D-/	.	8d-/	.	8d-/	.
8DD-/J	.	8D-/J	.	8d-/J	.	8d-/J	.
=363	=363	=363	=363	=363	=363	=363	=363
4.CC/	.	4.C/	.	4.c/	.	4.c/	.
8C/L	.	8E-/L	.	8A-/L	.	8a-/L	.
8C/	.	8E-/	.	8A-/	.	8a-/	.
8C/J	.	8E-/J	.	8A-/J	.	8a-/J	.
=364	=364	=364	=364	=364	=364	=364	=364
4D-/	.	8F/ 8A-/L	.	4A-/ 4f/	.	8f/L	.
.	.	8F/ 8A-/	.	.	.	8d-/	.
4r	.	8F/ 8A-/	.	4r	.	8f/	.
.	.	8F/ 8A-/	.	.	.	8a-/	.
4r	.	8F/ 8A-/	.	4r	.	8dd-/	.
.	.	8F/ 8A-/J	.	.	.	8ff/J	.
=365	=365	=365	=365	=365	=365	=365	=365
4D-/	.	8F/ 8A-/L	.	8f/L	.	4aa-\	.
.	.	8F/ 8A-/	.	8d-/	.	.	.
4r	.	8F/ 8A-/	.	8f/	.	4r	.
.	.	8F/ 8A-/	.	8a-/	.	.	.
4r	.	8F/ 8A-/	.	8dd-/	.	4ff\	.
.	.	8F/ 8A-/J	.	8ff/J	.	.	.
=366	=366	=366	=366	=366	=366	=366	=366
4GG-/	.	8B-\L	.	[2.b-\	.	[2.bb-\	.
.	.	8G-\	.	.	.	.	.
4r	.	8B-\	.	.	.	.	.
.	.	8e-\	.	.	.	.	.
4r	.	8g-\	.	.	.	.	.
.	.	8b-\J	.	.	.	.	.
=367	=367	=367	=367	=367	=367	=367	=367
8GG-/L	.	4E-/	.	4b-\]	.	(8bb-\L]	.
8EE-/	.	.	.	.	.	8aa-\)	.
8GG-/	.	4r	.	4B-/	.	8gg-'\	.
8BB-/	.	.	.	.	.	8ff'\	.
8E-/	.	8E-/L	.	[4g-/	.	8ee-'\	.
8G-/J	.	8E-/J	.	.	.	8dd-'\J	.
=368	=368	=368	=368	=368	=368	=368	=368
4AA-/	.	8E-/L	.	8g-/L]	.	8cc'/L	.
.	.	8E-/	.	8c/	.	8b-'/	.
4r	.	8E-/	.	8c/	.	8a-'/	.
.	.	8E-/	.	8c/	.	8g-'/	.
4r	.	8E-/	.	8c/	.	8f'/	.
.	.	8E-/J	.	8c/J	.	8e-'/J	.
=369	=369	=369	=369	=369	=369	=369	=369
4AA-/	.	8G-/L	.	8e-/L	.	8d-/L	.
.	.	8G-/	.	8e-/	.	8c/	.
4r	.	8G-/	.	8e-/	.	8e-/	.
.	.	8G-/	.	8e-/	.	8c/	.
4r	.	8G-/	.	8e-/	.	8A-/	.
.	.	8G-/J	.	8e-/J	.	8c/J	.
=370	=370	=370	=370	=370	=370	=370	=370
4.D-\	.	4.A-/	.	4.f/	.	4d-/	.
.	.	.	.	.	.	4r	.
8d-\L	.	8f\L	.	8a-/L	.	.	.
8d-\	.	8f\	.	8a-/	.	4r	.
8d-\J	.	8f\J	.	8a-/J	.	.	.
=371	=371	=371	=371	=371	=371	=371	=371
4.d-\	.	4.f\	.	4.a-/	.	4r	.
.	.	.	.	.	.	8r	.
8D-\L	.	8F/L	.	8A-/L	.	8a-/L	.
8D-\	.	8F/	.	8A-/	.	8a-/	.
8D-\J	.	8F/J	.	8A-/J	.	8a-/J	.
=372	=372	=372	=372	=372	=372	=372	=372
4D-\	.	8F/L	.	4A-/	.	8f/L	.
.	.	8F/ 8A-/	.	.	.	8d-/	.
4r	.	8F/ 8A-/	.	4r	.	8f/	.
.	.	8F/ 8A-/	.	.	.	8a-/	.
4r	.	8F/ 8A-/	.	4r	.	8dd-/	.
.	.	8F/ 8A-/J	.	.	.	8ff/J	.
=373	=373	=373	=373	=373	=373	=373	=373
4D-\	.	8F/ 8A-/L	.	8f/L	.	4aa-\	.
.	.	8F/ 8A-/	.	8d-/	.	.	.
4r	.	8F/ 8A-/	.	8f/	.	4r	.
.	.	8F/ 8A-/	.	8a-/	.	.	.
4r	.	8F/ 8A-/	.	8dd-/	.	4ff\	.
.	.	8F/ 8A-/J	.	8ff/J	.	.	.
=374	=374	=374	=374	=374	=374	=374	=374
4BB-/	p	8F\ 8Gn\L	.	[2.dd-\	p	[2.ddd-\	.
.	.	8G\	.	.	.	.	.
4r	.	8B-\	.	.	.	.	.
.	.	8d-\	.	.	.	.	.
4r	.	8gn\	.	.	.	.	.
.	.	8b-\J	.	.	.	.	.
=375	=375	=375	=375	=375	=375	=375	=375
8BB-/L	p	4B-/	.	4dd-\]	.	(8ddd-\L]	p
8GGn/	.	.	.	.	.	8ccc\)	.
8BB-/	.	4r	.	4d-/	.	8bb-'\	.
8D-/	.	.	.	.	.	8aa-'\	.
8Gn/	.	8G/L	.	[4b-/	.	8ggn'\	.
8B-/J	.	8G/J	.	.	.	8ff'\J	.
=376	=376	=376	=376	=376	=376	=376	=376
4C/	.	8G/L	.	8b-/L]	.	8een'\L	.
.	.	8G/	.	8B-/	.	8dd-'\	.
4r	.	8G/	.	8B-/	.	8cc'\	.
.	.	8G/	.	8B-/	.	8b-'\	.
4r	.	8G/	.	8B-/	.	8a-'\	.
.	.	8G/J	.	8B-/J	.	8gn'\J	.
=377	=377	=377	=377	=377	=377	=377	=377
4C/	.	8G/L	.	8B-/L	.	8f/L	.
.	.	8G/	.	8B-/	.	8en/	.
4r	.	8G/	.	8B-/	.	8g/	.
.	.	8G/	.	8B-/	.	8e/	.
4r	.	8G/	.	8B-/	.	8c/	.
.	.	8G/J	.	8B-/J	.	8e/J	.
=378	=378	=378	=378	=378	=378	=378	=378
4FF/	.	8F/L	.	8A-/L	.	4.f/	.
.	.	8G/	.	8B-/	.	.	.
4r	.	8A-/	.	8c/	.	.	.
.	.	8B-/	.	8d-/	.	8ff\L	.
4r	.	8A-/	.	8c/	.	8ff\	.
.	.	8G/J	.	8B-/J	.	8ff\J	.
=379	=379	=379	=379	=379	=379	=379	=379
4FF/	.	8F/L	.	8A-/L	.	4.f/	.
.	.	8G/	.	8B-/	.	.	.
4r	.	8A-/	.	8c/	.	.	.
.	.	8B-/	.	8d-/	.	8aa-\L	.
4r	.	8A-/	.	8c/	.	8aa-\	.
.	.	8G/J	.	8B-/J	.	8aa-\J	.
=380	=380	=380	=380	=380	=380	=380	=380
4FF/	.	8F/L	.	8A-/L	.	4ff\	.
.	.	8G/	.	8B-/	.	.	.
4FF/	.	8F/	.	8A-/	.	4fff\	.
.	.	8G/	.	8B-/	.	.	.
4FF/	.	8A-/	.	8c/	.	4ff\	.
.	.	8F/J	.	8A-/J	.	.	.
=381	=381	=381	=381	=381	=381	=381	=381
2.r	.	4r	.	4ddn\	.	4r	.
.	.	4r	.	4dn/	.	4fff\	.
.	.	4bn\	.	4r	.	4ff\	.
=382	=382	=382	=382	=382	=382	=382	=382
4r	.	4Bn/	.	2.r	.	4r	.
4dn\	.	4r	.	.	.	4fff\	.
4Dn\	.	4r	.	.	.	4ff\	.
=383	=383	=383	=383	=383	=383	=383	=383
4Bn\	.	4r	.	4r	.	4r	.
4GG/	.	4G/	.	4f/	.	4ddd\	.
8AAn/L	.	4G/	.	4f/	.	4dd\	.
8BBn/J	.	.	.	.	.	.	.
=384	=384	=384	=384	=384	=384	=384	=384
4CC/ 4C/	.	8C/L	.	8e-/L	.	4.c/	.
.	.	8D/	.	8f/	.	.	.
4r	.	8E-/	.	8g/	.	.	.
.	.	8F/	.	8a-/	.	8ee-\L	.
4r	.	8E-/	.	8g/	.	8ee-\	.
.	.	8D/J	.	8f/J	.	8ee-\J	.
=385	=385	=385	=385	=385	=385	=385	=385
4CC/ 4C/	.	8C/L	.	8e-/L	.	4.c/	.
.	.	8D/	.	8f/	.	.	.
4r	.	8E-/	.	8g/	.	.	.
.	.	8F/	.	8a-/	.	8gg\L	.
4r	.	8E-/	.	8g/	.	8gg\	.
.	.	8D/J	.	8f/J	.	8gg\J	.
=386	=386	=386	=386	=386	=386	=386	=386
4CC/ 4C/	.	8C/L	.	8e-/L	.	4cc\	.
.	.	8D/	.	8f/	.	.	.
4CC/ 4C/	.	8C/	.	8e-/	.	4eee-\	.
.	.	8D/	.	8f/	.	.	.
4CC/ 4C/	.	8E-/	.	8g/	.	4cc\	.
.	.	8C/J	.	8e-/J	.	.	.
=387	=387	=387	=387	=387	=387	=387	=387
2.r	.	4r	.	4an/	.	4r	.
.	.	4r	.	4An/	.	4ccc\	.
.	.	4f#\	.	4r	.	4cc\	.
=388	=388	=388	=388	=388	=388	=388	=388
4r	.	4F#/	.	2.r	.	4r	.
4An\	.	4r	.	.	.	4ccc\	.
4AAn/	.	4r	.	.	.	4cc\	.
=389	=389	=389	=389	=389	=389	=389	=389
4F#\	.	4r	.	4r	.	4r	.
4DD/	.	4d\	.	4c/	.	4aan\	.
8EEn/L	.	4d\	.	4c/	.	4an/	.
8FF#/J	.	.	.	.	.	.	.
=390	=390	=390	=390	=390	=390	=390	=390
4GG'/	.	4d\	.	4B-/ 4g/	.	[2.gg\	.
4B-'\	.	4r	.	8r	.	.	.
.	.	.	.	8g/L	.	.	.
4GG'/	.	4r	.	8g/	.	.	.
.	.	.	.	8g/J	.	.	.
=391	=391	=391	=391	=391	=391	=391	=391
4GG/	.	2.r	.	4g/	.	2gg\]	.
4Bn\	.	.	.	8r	.	.	.
.	.	.	.	8g/L	.	.	.
4GG/	.	.	.	8g/	.	4ff\	.
.	.	.	.	8g/J	.	.	.
=392	=392	=392	=392	=392	=392	=392	=392
4GG/	.	2.r	.	4g/	.	(8ff\L	.
.	.	.	.	.	.	8ee-\J)	.
4c\	.	.	.	8r	.	4r	.
.	.	.	.	8g/L	.	.	.
4GG/	.	.	.	8g/	.	4dd\	.
.	.	.	.	8g/J	.	.	.
=393	=393	=393	=393	=393	=393	=393	=393
4GG/	.	2.r	.	4g/	.	(8ff\L	.
.	.	.	.	.	.	8ee-\J)	.
4Bn\	.	.	.	8r	.	4r	.
.	.	.	.	8g/L	.	.	.
4GG/	.	.	.	8g/	.	4dd\	.
.	.	.	.	8g/J	.	.	.
=394	=394	=394	=394	=394	=394	=394	=394
4GG/	.	2.r	.	4g/	.	(8ff\L	.
.	.	.	.	.	.	8ee-\J)	.
4c\	.	.	.	8r	.	4r	.
.	.	.	.	8g/L	.	.	.
4GG/	.	.	.	8g/	.	4dd\	.
.	.	.	.	8g/J	.	.	.
=395	=395	=395	=395	=395	=395	=395	=395
4GG/	.	2.r	.	4g/	.	4ee-\	.
4An\	.	.	.	8r	.	4r	.
.	.	.	.	8g/L	.	.	.
4GG/	.	.	.	8g/	.	4ff#\	.
.	.	.	.	8g/J	.	.	.
=396	=396	=396	=396	=396	=396	=396	=396
4GG/	.	2.r	.	[2.g/	.	[2.gg\	.
4G\	.	.	.	.	.	.	.
4GG/	.	.	.	.	.	.	.
=397	=397	=397	=397	=397	=397	=397	=397
4GG/	.	4r	.	2g/]	.	2gg\]	.
(8GG/L	.	(4Bn/	.	.	.	.	.
8FF/	.	.	.	.	.	.	.
8EE-/	.	8c\L	.	(8an/L	.	(8aan\L	.
8DD/J)	.	8d\J)	.	8bn/J)	.	8bbn\J)	.
=398	=398	=398	=398	=398	=398	=398	=398
4CC/	p	4C/	.	[2.cc\	p	[2.ccc\	p
8r	.	4e-\	p	.	.	.	.
8c\L	.	.	.	.	.	.	.
8c\	.	4C/	.	.	.	.	.
8c\J	.	.	.	.	.	.	.
=399	=399	=399	=399	=399	=399	=399	=399
4c\	.	4C/	.	(2cc\]	.	(2ccc\]	.
8r	.	4en\	.	.	.	.	.
8c\L	.	.	.	.	.	.	.
8c\	.	4C/	.	4b-\)	.	4bb-\)	.
8c\J	.	.	.	.	.	.	.
=400	=400	=400	=400	=400	=400	=400	=400
4c\	.	4C/	.	(8b-/L	.	(8bb-\L	.
.	.	.	.	8a-/J)	.	8aa-\J)	.
8r	.	4f\	.	4r	.	4r	.
8c\L	.	.	.	.	.	.	.
8c\	.	4C/	.	4g/	.	4gg\	.
8c\J	.	.	.	.	.	.	.
=401	=401	=401	=401	=401	=401	=401	=401
4c\	.	4C/	.	(8b-/L	.	(8bb-\L	.
.	.	.	.	8a-/J)	.	8aa-\J)	.
8r	.	4en\	.	4r	.	4r	.
8c\L	.	.	.	.	.	.	.
8c\	.	4C/	.	4g/	.	4gg\	.
8c\J	.	.	.	.	.	.	.
=402	=402	=402	=402	=402	=402	=402	=402
4c\	.	4C/	.	(8b-/L	.	(8bb-\L	.
.	.	.	.	8a-/J)	.	8aa-\J)	.
8r	.	4f\	.	4r	.	4r	.
8c\L	.	.	.	.	.	.	.
8c\	.	4C/	.	4g/	.	4gg\	.
8c\J	.	.	.	.	.	.	.
=403	=403	=403	=403	=403	=403	=403	=403
4c\	.	4C/	.	4a-/	.	4aa-\	.
8r	.	4d\	.	4r	.	4r	.
8c\L	.	.	.	.	.	.	.
8c\	.	4C/	.	4bn/	.	4bbn\	.
8c\J	.	.	.	.	.	.	.
=404	=404	=404	=404	=404	=404	=404	=404
8c\L	.	8e-\L	.	4.cc\	.	4.ccc\	.
8c\J	.	8e-\J	.	.	.	.	.
2d\	.	2g\	.	.	.	.	.
.	.	.	.	8cc\L	.	8ccc\L	.
.	.	.	.	8cc\	.	8ccc\	p
.	.	.	.	8cc\J	p	8bb-\J	.
=405	=405	=405	=405	=405	=405	=405	=405
8f\L	p	8a-\L	p	4cc\	.	4.aa-\	.
8f\J	.	8a-\J	.	.	.	.	.
2d\	.	2f\	.	8b-\L	.	.	.
.	.	.	.	8b-\	.	8bb-\L	.
.	.	.	.	8b-\	.	8bb-\	.
.	.	.	.	8b-\J	.	8aa-\J	.
=406	=406	=406	=406	=406	=406	=406	=406
8e-\L	.	8g\L	.	4b-\	.	4.gg\	.
8e-\J	.	8g\J	.	.	.	.	.
2c\	.	2e-\	.	8a-/L	.	.	.
.	.	.	.	8a-/	.	8aa-\L	.
.	.	.	.	8a-/	.	8aa-\	.
.	.	.	.	8a-/J	.	8gg\J	.
=407	=407	=407	=407	=407	=407	=407	=407
8d\L	.	8f\L	.	4a-/	.	4.ff\	.
8d\J	.	8f\J	.	.	.	.	.
2Bn\	.	2d\	.	8g/L	.	.	.
.	.	.	.	8g/	.	8gg\L	.
.	.	.	.	8g/	.	8gg\	.
.	.	.	.	8g/J	.	8ff\J	.
=408	=408	=408	=408	=408	=408	=408	=408
8c\L	.	8e-/L	.	4g/	.	4.ee-\	.
8C\J	.	8E-/J	.	.	.	.	.
2E-\	.	2G/	.	8c/L	.	.	.
.	.	.	.	8c/	.	8cc\L	.
.	.	.	.	8c/	.	8cc\	.
.	.	.	.	8c/J	.	8b-\J	.
=409	=409	=409	=409	=409	=409	=409	=409
8F\L	.	8A-/L	.	4c/	.	4.a-/	.
8F\J	.	8A-/J	.	.	.	.	.
2D\	.	2F/	.	8B-/L	.	.	.
.	.	.	.	8B-/	.	8b-/L	.
.	.	.	.	8B-/	.	8b-/	.
.	.	.	.	8B-/J	.	8a-/J	.
=410	=410	=410	=410	=410	=410	=410	=410
8E-\L	.	8G/L	.	4B-/	.	4.g/	.
8E-\J	.	8G/J	.	.	.	.	.
2C/	.	2E-/	.	8A-/L	.	.	.
.	.	.	.	8A-/	.	8a-/L	.
.	.	.	.	8A-/	.	8a-/	.
.	.	.	.	8A-/J	.	8g/J	.
=411	=411	=411	=411	=411	=411	=411	=411
8D/L	.	8F/L	.	4A-/	.	4.f/	.
8D/J	.	8F/J	.	.	.	.	.
2BBn/	.	2D/	.	8G/L	.	.	.
.	.	.	.	8G/	.	8g/L	.
.	.	.	.	8G/	.	8g/	.
.	.	.	.	8G/J	.	8f/J	.
=412	=412	=412	=412	=412	=412	=412	=412
8C/L	.	8E-/L	.	4G/	.	4.e-/	.
8C/J	.	8E-/J	.	.	.	.	.
2AA-/	.	2C/	.	8c/L	.	.	.
.	.	.	.	8c/	.	8f/L	.
.	.	.	.	8c/	.	8e-/	.
.	.	.	.	8c/J	.	8f/J	.
=413	=413	=413	=413	=413	=413	=413	=413
8GG/L	.	8D/L	.	4c/	.	4.g/	.
8GG/J	.	8D/J	.	.	.	.	.
2GG/	.	2D/	.	8Bn/L	.	.	.
.	.	.	.	8B/	.	8g/L	.
.	.	.	.	8B/	.	8g/	.
.	.	.	.	8B/J	.	8f/J	.
=414	=414	=414	=414	=414	=414	=414	=414
8C/L	.	8E-/L	.	4G/	.	4.e-/	.
8C/J	.	8E-/J	.	.	.	.	.
2AA-/	.	2C/	.	8c/L	.	.	.
.	.	.	.	8c/	.	8f/L	.
.	.	.	.	8c/	.	8e-/	.
.	.	.	.	8c/J	.	8f/J	.
=415	=415	=415	=415	=415	=415	=415	=415
8GG/L	.	8D/L	.	4c/	.	4.g/	.
8GG/J	.	8D/J	.	.	.	.	.
2GG/	.	2D/	.	8Bn/L	.	.	.
.	.	.	.	8B/	.	8g/L	.
.	.	.	.	8B/	.	8g/	.
.	.	.	.	8B/J	.	8g/J	.
=416	=416	=416	=416	=416	=416	=416	=416
8GG/L	ppp	4D/	ppp	4Bn/	ppp	4g/	ppp
8GG/	.	.	.	.	.	.	.
8AA-/	.	4r	.	4r	.	4r	.
8AA-/	.	.	.	.	.	.	.
8GG/	.	4r	.	4r	.	4r	.
8GG/J	.	.	.	.	.	.	.
=417	=417	=417	=417	=417	=417	=417	=417
8FF/L	.	2.r	.	4c/	.	4a-/	.
8FF/	.	.	.	.	.	.	.
8GG/	.	.	.	4r	.	4r	.
8GG/	.	.	.	.	.	.	.
8FF/	.	.	.	4r	.	4r	.
8FF/J	.	.	.	.	.	.	.
=418	=418	=418	=418	=418	=418	=418	=418
8EE-/L	.	4G/	.	4c/	.	4an/	.
8EE-/	.	.	.	.	.	.	.
8FF/	.	4r	.	4r	.	4r	.
8FF/	.	.	.	.	.	.	.
8EE-/	.	4r	.	4r	.	4r	.
8EE-/J	.	.	.	.	.	.	.
=419	=419	=419	=419	=419	=419	=419	=419
8DD/L	.	4G/	.	4d/	.	4bn/	.
8DD/	.	.	.	.	.	.	.
8EE-/	.	4r	.	4r	.	4r	.
8EE-/	.	.	.	.	.	.	.
8DD/	.	4r	.	4r	.	4r	.
8DD/J	.	.	.	.	.	.	.
=420	=420	=420	=420	=420	=420	=420	=420
8CC/L	.	4G/	.	4e-/	.	4cc\	.
8GG/	.	.	.	.	.	.	.
8GG/	.	4r	.	4r	.	4r	.
8GG/	.	.	.	.	.	.	.
8GG/	.	8G/L	.	8d/L	.	8bn\L	.
8GG/J	.	8G/J	.	8d/J	.	8b\J	.
=421	=421	=421	=421	=421	=421	=421	=421
8CC/L	.	4G/	.	4e-/	.	4cc\	.
8GG/	.	.	.	.	.	.	.
8GG/	.	4r	.	4r	.	4r	.
8GG/	.	.	.	.	.	.	.
8GG/	.	8G/L	.	8d/L	.	8bn\L	.
8GG/J	.	8G/J	.	8d/J	.	8b\J	.
=422	=422	=422	=422	=422	=422	=422	=422
8CC/L	.	4G/	.	4e-/	.	4cc\	.
8GG/	.	.	.	.	.	.	.
8GG/	.	4r	.	4r	.	4r	.
8GG/	.	.	.	.	.	.	.
8GG/	.	8G/L	.	8d/L	.	8bn\L	.
8GG/J	.	8G/J	.	8d/J	.	8b\J	.
=423	=423	=423	=423	=423	=423	=423	=423
8CC/L	.	4G/	.	4e-/	.	4cc\	.
8GG/	.	.	.	.	.	.	.
8GG/	.	4r	.	4r	.	4r	.
8GG/	.	.	.	.	.	.	.
8GG/	.	8G/L	.	8d/L	.	8bn\L	.
8GG/J	.	8G/J	.	8d/J	.	8b\J	.
=424	=424	=424	=424	=424	=424	=424	=424
8CC/L	.	(4C/	.	[2.e-/	.	[2.cc\	.
8AA-/	.	.	.	.	.	.	.
8AA-/	.	[2A-/)	.	.	.	.	.
8AA-/	.	.	.	.	.	.	.
8AA-/	.	.	.	.	.	.	.
8AA-/J	.	.	.	.	.	.	.
=425	=425	=425	=425	=425	=425	=425	=425
8AA-/L	.	2.A-/_	.	2.e-/_	.	2.cc\_	.
8AA-/	.	.	.	.	.	.	.
8AA-/	.	.	.	.	.	.	.
8AA-/	.	.	.	.	.	.	.
8AA-/	.	.	.	.	.	.	.
8AA-/J	.	.	.	.	.	.	.
=426	=426	=426	=426	=426	=426	=426	=426
8AA-/L	.	2.A-/_	.	2.e-/_	.	2.cc\_	.
8AA-/	.	.	.	.	.	.	.
8AA-/	.	.	.	.	.	.	.
8AA-/	.	.	.	.	.	.	.
8AA-/	.	.	.	.	.	.	.
8AA-/J	.	.	.	.	.	.	.
=427	=427	=427	=427	=427	=427	=427	=427
8AA-/L	.	2.A-/_	.	2.e-/_	.	2.cc\_	.
8AA-/	.	.	.	.	.	.	.
8AA-/	.	.	.	.	.	.	.
8AA-/	.	.	.	.	.	.	.
8AA-/	.	.	.	.	.	.	.
8AA-/J	.	.	.	.	.	.	.
=428	=428	=428	=428	=428	=428	=428	=428
8AA-/L	.	4A-/]	.	4e-/]	.	4cc\]	.
8AA-/	.	.	.	.	.	.	.
8BB-/	.	4r	.	4r	.	4r	.
8BB-/	.	.	.	.	.	.	.
8AA-/	pp	4r	.	4r	.	4r	.
8AA-/J	.	.	.	.	.	.	.
=429	=429	=429	=429	=429	=429	=429	=429
8GG-/L	.	2.r	.	4c/	.	4a-/	.
8GG-/	.	.	.	.	.	.	.
8AA-/	.	.	.	4r	.	4r	.
8AA-/	.	.	.	.	.	.	.
8GG-/	.	.	.	4r	.	4r	.
8GG-/J	.	.	.	.	.	.	.
=430	=430	=430	=430	=430	=430	=430	=430
8FF/L	.	4A-/	.	4d-/	pp	4b-\	pp
8FF/	.	.	.	.	.	.	.
8GG-/	.	4r	.	4r	.	4r	.
8GG-/	.	.	.	.	.	.	.
8FF/	.	4r	.	4r	.	4r	.
8FF/J	.	.	.	.	.	.	.
=431	=431	=431	=431	=431	=431	=431	=431
8EE-/L	.	4A-/	pp	4e-/	.	4cc\	.
8EE-/	.	.	.	.	.	.	.
8FF/	.	4r	.	4r	.	4r	.
8FF/	.	.	.	.	.	.	.
8EE-/	.	4r	.	4r	.	4r	.
8EE-/J	.	.	.	.	.	.	.
=432	=432	=432	=432	=432	=432	=432	=432
8DD-/L	.	4A-/	.	4f/	.	4dd-\	.
8AA-/	.	.	.	.	.	.	.
8AA-/	.	8r	.	8r	.	8r	.
8AA-/	.	8A-/L	.	8e-/L	.	8cc\L	.
8AA-/	.	8A-/	.	8e-/	.	8cc\	.
8AA-/J	.	8A-/J	.	8e-/J	.	8cc\J	.
=433	=433	=433	=433	=433	=433	=433	=433
8DD-/L	.	4A-/	.	4f/	.	4dd-\	.
8AA-/	.	.	.	.	.	.	.
8AA-/	.	8r	.	8r	.	8r	.
8AA-/	.	8A-/L	.	8e-/L	.	8cc\L	.
8AA-/	.	8A-/	.	8e-/	.	8cc\	.
8AA-/J	.	8A-/J	.	8e-/J	.	8cc\J	.
=434	=434	=434	=434	=434	=434	=434	=434
8DD-/L	.	4A-/	.	4f/	.	4dd-\	.
8AA-/	.	.	.	.	.	.	.
8AA-/	.	8r	.	8r	.	8r	.
8AA-/	.	8A-/L	.	8e-/L	.	8cc\L	.
8AA-/	.	8A-/	.	8e-/	.	8cc\	.
8AA-/J	.	8A-/J	.	8e-/J	.	8cc\J	.
=435	=435	=435	=435	=435	=435	=435	=435
8DD-/L	.	4A-/	.	4f/	.	4dd-\	.
8AA-/	.	.	.	.	.	.	.
8AA-/	.	8r	.	8r	.	8r	.
8AA-/	.	8A-/L	.	8e-/L	.	8cc\L	.
8AA-/	.	8A-/	.	8e-/	.	8cc\	.
8AA-/J	.	8A-/J	.	8e-/J	.	8cc\J	.
=436	=436	=436	=436	=436	=436	=436	=436
8DD-/L	.	(4D-/	.	[2.f/	.	[2.dd-\	.
8BB-/	.	.	.	.	.	.	.
8BB-/	.	[2B-/)	.	.	.	.	.
8BB-/	.	.	.	.	.	.	.
8BB-/	.	.	.	.	.	.	.
8BB-/J	.	.	.	.	.	.	.
=437	=437	=437	=437	=437	=437	=437	=437
8BB-/L	.	2.B-/_	.	2.f/_	.	2.dd-\]	.
8BB-/	.	.	.	.	.	.	.
8BB-/	.	.	.	.	.	.	.
8BB-/	.	.	.	.	.	.	.
8BB-/	.	.	.	.	.	.	.
8BB-/J	.	.	.	.	.	.	.
=438	=438	=438	=438	=438	=438	=438	=438
8BB-/L	.	2.B-/_	.	2.f/_	.	[2.ddn\	.
8BB-/	.	.	.	.	.	.	.
8BB-/	.	.	.	.	.	.	.
8BB-/	.	.	.	.	.	.	.
8BB-/	.	.	.	.	.	.	.
8BB-/J	.	.	.	.	.	.	.
=439	=439	=439	=439	=439	=439	=439	=439
8BB-/L	.	2.B-/]	.	2.f/]	.	2.dd\]	.
8BB-/	.	.	.	.	.	.	.
8BB-/	.	.	.	.	.	.	.
8BB-/	.	.	.	.	.	.	.
8BB-/	.	.	.	.	.	.	.
8BB-/J	.	.	.	.	.	.	.
=440	=440	=440	=440	=440	=440	=440	=440
8BB-/L	.	4B-/	pp	2.f/	pp	2.dd\	pp
8BB-/	.	.	.	.	.	.	.
8C-/	.	4r	.	.	.	.	.
8C-/	.	.	.	.	.	.	.
8BB-/	.	4r	.	.	.	.	.
8BB-/J	.	.	.	.	.	.	.
=441	=441	=441	=441	=441	=441	=441	=441
8AA-/L	.	2.r	.	[2.g-/	.	[2.ee-\	.
8AA-/	.	.	.	.	.	.	.
8BB-/	.	.	.	.	.	.	.
8BB-/	.	.	.	.	.	.	.
8AA-/	.	.	.	.	.	.	.
8AA-/J	.	.	.	.	.	.	.
=442	=442	=442	=442	=442	=442	=442	=442
8GG-/L	.	(2.c-\	.	2.g-/_	.	2.ee-\_	.
8GG-/	.	.	.	.	.	.	.
8AA-/	.	.	.	.	.	.	.
8AA-/	.	.	.	.	.	.	.
8GG-/	.	.	.	.	.	.	.
8GG-/J	.	.	.	.	.	.	.
=443	=443	=443	=443	=443	=443	=443	=443
8AA-/L	.	2.cc-\)	.	2.g-/]	.	2.ee-\]	.
8AA-/	.	.	.	.	.	.	.
8BB-/	.	.	.	.	.	.	.
8BB-/	.	.	.	.	.	.	.
8AA-/	.	.	.	.	.	.	.
8AA-/J	.	.	.	.	.	.	.
=444	=444	=444	=444	=444	=444	=444	=444
8BB-/L	pp	4b-\	pp	2.f/	pp	2.dd\	pp
8BB-/	.	.	.	.	.	.	.
8C-/	.	4r	.	.	.	.	.
8C-/	.	.	.	.	.	.	.
8BB-/	.	4r	.	.	.	.	.
8BB-/J	.	.	.	.	.	.	.
=445	=445	=445	=445	=445	=445	=445	=445
8AA-/L	.	2.r	.	[2.g-/	.	[2.ee-\	.
8AA-/	.	.	.	.	.	.	.
8BB-/	.	.	.	.	.	.	.
8BB-/	.	.	.	.	.	.	.
8AA-/	.	.	.	.	.	.	.
8AA-/J	.	.	.	.	.	.	.
=446	=446	=446	=446	=446	=446	=446	=446
8GG-/L	.	(2.c-\	.	2.g-/_	.	2.ee-\_	.
8GG-/	.	.	.	.	.	.	.
8AA-/	.	.	.	.	.	.	.
8AA-/	.	.	.	.	.	.	.
8GG-/	.	.	.	.	.	.	.
8GG-/J	.	.	.	.	.	.	.
=447	=447	=447	=447	=447	=447	=447	=447
8AA-/L	.	2.cc-\)	.	2.g-/]	.	2.ee-\]	.
8AA-/	.	.	.	.	.	.	.
8BB-/	.	.	.	.	.	.	.
8BB-/	.	.	.	.	.	.	.
8AA-/	.	.	.	.	.	.	.
8AA-/J	pp	.	.	.	.	.	.
=448	=448	=448	=448	=448	=448	=448	=448
8BB-/L	.	4b-\	pp	4f/	pp	4dd\	pp
8BB-/	.	.	.	.	.	.	.
8Cn/	.	4r	.	4r	.	4r	.
8C/	.	.	.	.	.	.	.
8BB-/	.	4r	.	4r	.	4r	.
8BB-/J	.	.	.	.	.	.	.
=449	=449	=449	=449	=449	=449	=449	=449
8C/L	.	2.r	.	2.r	.	2.r	.
8C/	.	.	.	.	.	.	.
8D/	.	.	.	.	.	.	.
8D/	.	.	.	.	.	.	.
8C/	.	.	.	.	.	.	.
8C/J	.	.	.	.	.	.	.
=450	=450	=450	=450	=450	=450	=450	=450
4D/	.	2.r	.	2.r	.	8b-\L	.
.	.	.	.	.	.	8b-\	.
4r	.	.	.	.	.	8cc\	.
.	.	.	.	.	.	8cc\	.
4r	.	.	.	.	.	8b-\	pp
.	.	.	.	.	.	8b-\J	.
=451	=451	=451	=451	=451	=451	=451	=451
2.r	.	2.r	.	2.r	.	8cc\L	.
.	.	.	.	.	.	8cc\	.
.	.	.	.	.	.	8dd\	.
.	.	.	.	.	.	8dd\	.
.	.	.	.	.	.	8cc\	.
.	.	.	.	.	.	8cc\J	.
=452	=452	=452	=452	=452	=452	=452	=452
8D\L	.	2.r	.	2.r	.	4dd\	.
8D\	.	.	.	.	.	.	.
8E-\	.	.	.	.	.	4r	.
8E-\	.	.	.	.	.	.	.
8D\	.	.	.	.	.	4r	.
8D\J	.	.	.	.	.	.	.
=453	=453	=453	=453	=453	=453	=453	=453
8E-\L	.	2.r	.	2.r	.	2.r	.
8E-\	.	.	.	.	.	.	.
8F\	.	.	.	.	.	.	.
8F\	.	.	.	.	.	.	.
8E-\	.	.	.	.	.	.	.
8E-\J	.	.	.	.	.	.	.
=454	=454	=454	=454	=454	=454	=454	=454
4F\	.	2.r	.	2.r	.	8dd\L	.
.	.	.	.	.	.	8dd\	.
4r	.	.	.	.	.	8ee-\	.
.	.	.	.	.	.	8ee-\	.
4r	.	.	.	.	.	8dd\	.
.	.	.	.	.	.	8dd\J	.
=455	=455	=455	=455	=455	=455	=455	=455
2.r	.	2.r	.	2.r	.	8ee-\L	.
.	.	.	.	.	.	8ee-\	.
.	.	.	.	.	.	8ff\	.
.	.	.	.	.	.	8ff\	.
.	.	.	.	.	.	8ee-\	.
.	.	.	.	.	.	8ee-\J	.
=456	=456	=456	=456	=456	=456	=456	=456
2.r	.	2.r	.	8dd\L	.	8ff\L	.
.	.	.	.	8dd\	.	8ff\	.
.	.	.	.	8ee-\	.	8gg\	.
.	.	.	.	8ee-\	.	8gg\	.
.	.	.	.	8dd\	pp	8ff\	.
.	.	.	.	8dd\J	.	8ff\J	.
=457	=457	=457	=457	=457	=457	=457	=457
2.r	.	2.r	.	8ee-\L	.	8gg\L	.
.	.	.	.	8ee-\	.	8gg\	.
.	.	.	.	8ff\	.	8aa-\	.
.	.	.	.	8ff\	.	8aa-\	.
.	.	.	.	8ee-\	.	8gg\	.
.	.	.	.	8ee-\J	.	8gg\J	.
=458	=458	=458	=458	=458	=458	=458	=458
2.r	.	2.r	.	8ff\L	.	8aa-\L	.
.	.	.	.	8ff\	.	8aa-\	.
.	.	.	.	8gg\	.	8bb-\	.
.	.	.	.	8gg\	.	8bb-\	.
.	.	.	.	8ff\	.	8aa-\	.
.	.	.	.	8ff\J	.	8aa-\J	.
=459	=459	=459	=459	=459	=459	=459	=459
2.r	.	2.r	.	8ff\L	.	8aa-\L	.
.	.	.	.	8ff\	.	8aa-\	.
.	.	.	.	8gg\	.	8bb-\	.
.	.	.	.	8gg\	.	8bb-\	.
.	.	.	.	8ff\	.	8aa-\	.
.	.	.	.	8ff\J	.	8aa-\J	.
=460	=460	=460	=460	=460	=460	=460	=460
8f\L	.	8a-\L	.	4ff\	.	4aa-\	.
8f\	.	8a-\	.	.	.	.	.
8g\	.	8b-\	.	4r	.	4r	.
8g\	.	8b-\	.	.	.	.	.
8f\	pp	8a-\	pp	4r	.	4r	.
8f\J	.	8a-\J	.	.	.	.	.
=461	=461	=461	=461	=461	=461	=461	=461
8f\L	.	8a-\L	.	2.r	.	2.r	.
8f\	.	8a-\	.	.	.	.	.
8g\	.	8b-\	.	.	.	.	.
8g\	.	8b-\	.	.	.	.	.
8f\	.	8a-\	.	.	.	.	.
8f\J	.	8a-\J	.	.	.	.	.
=462	=462	=462	=462	=462	=462	=462	=462
4f\	.	4a-\	.	8f/L	.	8a-/L	.
.	.	.	.	8f/	.	8a-/	.
4r	.	4r	.	8g/	.	8b-/	.
.	.	.	.	8g/	.	8b-/	.
4r	.	4r	.	8f/	.	8a-/	.
.	.	.	.	8f/J	.	8a-/J	.
=463	=463	=463	=463	=463	=463	=463	=463
2.r	.	2.r	.	8f/L	.	8a-/L	.
.	.	.	.	8f/	.	8a-/	.
.	.	.	.	8g/	.	8b-/	.
.	.	.	.	8g/	.	8b-/	.
.	.	.	.	8f/	.	8a-/	.
.	.	.	.	8f/J	.	8a-/J	.
=464	=464	=464	=464	=464	=464	=464	=464
8F\L	.	8A-/L	.	4f/	.	4a-/	.
8F\	.	8A-/	.	.	.	.	.
8G\	.	8B-/	.	4r	.	4r	.
8G\	.	8B-/	.	.	.	.	.
8F\	.	8A-/	.	4r	.	4r	.
8F\J	.	8A-/J	.	.	.	.	.
=465	=465	=465	=465	=465	=465	=465	=465
8F\L	.	8A-/L	.	2.r	.	2.r	.
8F\	.	8A-/	.	.	.	.	.
8G\	.	8B-/	.	.	.	.	.
8G\	.	8B-/	.	.	.	.	.
8F\	.	8A-/	.	.	.	.	.
8F\J	.	8A-/J	.	.	.	.	.
=466	=466	=466	=466	=466	=466	=466	=466
8D/L	.	8F/L	.	2.r	.	8A-/L	.
8D/	.	8F/	.	.	.	8A-/	.
8C#/	.	8G/	.	.	.	8B-/	.
8C#/	.	8G/	.	.	.	8B-/	.
8D/	.	8F/	.	.	.	8A-/	.
8D/J	.	8F/J	.	.	.	8A-/J	.
=467	=467	=467	=467	=467	=467	=467	=467
8DD/L	.	8F/L	.	8B-/L	.	8A-/L	.
8DD/	.	8F/	.	8B-/	.	8A-/	.
8CCn/	.	8G/	.	8B-/	.	8B-/	.
8CC/	.	8G/	.	8B-/	.	8B-/	.
8DD/	.	8F/	.	8B-/	.	8A-/	.
8DD/J	.	8F/J	.	8B-/J	.	8A-/J	.
=468	=468	=468	=468	=468	=468	=468	=468
2.DD;/	.	2.F;/	.	2.B-;/	.	2.A-;/	.
==	==	==	==	==	==	==	==
*-	*-	*-	*-	*-	*-	*-	*-
!!!ONB: Scanned with SharpEye into MusicXML by Don Anthony 2006///
!!!ONB: Converted to Humdrum by Craig Sapp 2006/07/24/
